%%%
  VERSION:1
  LANGUAGE:ENGLISH
%%%
MODULE MOD_P3D
VAR socketdev my_socket;

    ! -------------------------------
    ! Define customized variables here
    ! ...

	! Tool variables: 
	PERS tooldata Extruder_Baugruppe := [TRUE,[[74.975,66.408,95.147],[0.65328148,-0.27059805,0.65328148,0.27059805]],[1,[0,0,20],[1,0,0,0],0,0,0.005]];

	! Reference variables:
	PERS wobjdata wobjHeizbett := [FALSE, TRUE, "", [[0,0,0],[1,0,0,0]],[[-247.359,324.054,91.202],[0.99995314,0.00850002,-0.00210000,0.00413002]]];

	PROC Main()
	SocketCreate my_socket;
	SocketConnect my_socket, "10.0.0.10", 1234;
		ConfJ \On;
		ConfL \Off;
		! Program generated by RoboDK v5.9.0 for ABB IRB 1100-4/0.58 on 12/11/2025 13:08:41
		! Using nominal kinematics.
		SetRPM 60.0;
		M_RunCode 190;
		SetRPM 220.0;
		M_RunCode 109;
		M_RunCode 83;
		SetRPM 0.0;
		M_RunCode 106;
		! Anzeigen Extruder_Baugruppe
		MoveAbsJ [[114.996000,36.787900,23.306600,28.012600,-64.082800,-58.780900],[9E+09,9E+09,9E+09,9E+09,9E+09,9E+09]],v1000,z1,Extruder_Baugruppe \WObj:=wobjHeizbett;
		MoveL [[117.642,133.007,5.000],[0.00000000,-0.70419257,0.71000903,-0.00000000],[1,0,-1,1],[9E+09,9E+09,9E+09,9E+09,9E+09,9E+09]],v1000,z1,Extruder_Baugruppe \WObj:=wobjHeizbett;
		ExtruderSpeed 0.000;
		MoveL [[117.642,133.007,0.250],[0.00000000,-0.70419257,0.71000903,-0.00000000],[1,0,-1,1],[9E+09,9E+09,9E+09,9E+09,9E+09,9E+09]],v1000,z1,Extruder_Baugruppe \WObj:=wobjHeizbett;
		M_RunCode 117;
		ExtruderSpeed 3.000;
		MoveL [[117.642,175.433,0.250],[0.00000000,-0.70419257,0.71000903,0.00000000],[1,0,-1,1],[9E+09,9E+09,9E+09,9E+09,9E+09,9E+09]],v30,z1,Extruder_Baugruppe \WObj:=wobjHeizbett;
		MoveL [[202.358,175.433,0.250],[0.00000000,-0.70419257,0.71000903,-0.00000000],[1,0,-1,1],[9E+09,9E+09,9E+09,9E+09,9E+09,9E+09]],v30,z1,Extruder_Baugruppe \WObj:=wobjHeizbett;
		ExtruderSpeed 0.000;
		MoveL [[202.358,133.007,0.250],[0.00000000,-0.70419257,0.71000903,-0.00000000],[1,0,-1,1],[9E+09,9E+09,9E+09,9E+09,9E+09,9E+09]],v30,z1,Extruder_Baugruppe \WObj:=wobjHeizbett;
		ExtruderSpeed 3.000;
		MoveL [[117.642,133.007,0.250],[0.00000000,-0.70419257,0.71000903,-0.00000000],[1,0,-1,1],[9E+09,9E+09,9E+09,9E+09,9E+09,9E+09]],v30,z1,Extruder_Baugruppe \WObj:=wobjHeizbett;
		ExtruderSpeed 0.000;
		MoveL [[118.148,133.513,0.250],[0.00000000,-0.70419257,0.71000903,0.00000000],[1,0,-1,1],[9E+09,9E+09,9E+09,9E+09,9E+09,9E+09]],v50,z1,Extruder_Baugruppe \WObj:=wobjHeizbett;
		MoveL [[118.148,174.927,0.250],[0.00000000,-0.70419257,0.71000903,0.00000000],[1,0,-1,1],[9E+09,9E+09,9E+09,9E+09,9E+09,9E+09]],v30,z1,Extruder_Baugruppe \WObj:=wobjHeizbett;
		ExtruderSpeed 3.000;
		MoveL [[201.852,174.927,0.250],[0.00000000,-0.70419257,0.71000903,-0.00000000],[1,0,-1,1],[9E+09,9E+09,9E+09,9E+09,9E+09,9E+09]],v30,z1,Extruder_Baugruppe \WObj:=wobjHeizbett;
		ExtruderSpeed 0.000;
		MoveL [[201.852,133.513,0.250],[0.00000000,-0.70419257,0.71000903,-0.00000000],[1,0,-1,1],[9E+09,9E+09,9E+09,9E+09,9E+09,9E+09]],v30,z1,Extruder_Baugruppe \WObj:=wobjHeizbett;
		ExtruderSpeed 3.000;
		MoveL [[118.148,133.513,0.250],[0.00000000,-0.70419257,0.71000903,0.00000000],[1,0,-1,1],[9E+09,9E+09,9E+09,9E+09,9E+09,9E+09]],v30,z1,Extruder_Baugruppe \WObj:=wobjHeizbett;
		ExtruderSpeed 0.000;
		MoveL [[118.654,134.019,0.250],[0.00000000,-0.70419257,0.71000903,-0.00000000],[1,0,-1,1],[9E+09,9E+09,9E+09,9E+09,9E+09,9E+09]],v50,z1,Extruder_Baugruppe \WObj:=wobjHeizbett;
		MoveL [[118.654,174.421,0.250],[0.00000000,-0.70419257,0.71000903,0.00000000],[1,0,-1,1],[9E+09,9E+09,9E+09,9E+09,9E+09,9E+09]],v30,z1,Extruder_Baugruppe \WObj:=wobjHeizbett;
		ExtruderSpeed 3.000;
		MoveL [[201.346,174.421,0.250],[0.00000000,-0.70419257,0.71000903,-0.00000000],[1,0,-1,1],[9E+09,9E+09,9E+09,9E+09,9E+09,9E+09]],v30,z1,Extruder_Baugruppe \WObj:=wobjHeizbett;
		ExtruderSpeed 0.000;
		MoveL [[201.346,134.019,0.250],[0.00000000,-0.70419257,0.71000903,-0.00000000],[1,0,-1,1],[9E+09,9E+09,9E+09,9E+09,9E+09,9E+09]],v30,z1,Extruder_Baugruppe \WObj:=wobjHeizbett;
		ExtruderSpeed 3.000;
		MoveL [[118.654,134.019,0.250],[0.00000000,-0.70419257,0.71000903,-0.00000000],[1,0,-1,1],[9E+09,9E+09,9E+09,9E+09,9E+09,9E+09]],v30,z1,Extruder_Baugruppe \WObj:=wobjHeizbett;
		ExtruderSpeed 0.000;
		MoveL [[119.161,134.526,0.250],[0.00000000,-0.70419257,0.71000903,-0.00000000],[1,0,-1,1],[9E+09,9E+09,9E+09,9E+09,9E+09,9E+09]],v50,z1,Extruder_Baugruppe \WObj:=wobjHeizbett;
		MoveL [[119.161,173.914,0.250],[0.00000000,-0.70419257,0.71000903,-0.00000000],[1,0,-1,1],[9E+09,9E+09,9E+09,9E+09,9E+09,9E+09]],v30,z1,Extruder_Baugruppe \WObj:=wobjHeizbett;
		ExtruderSpeed 3.000;
		MoveL [[200.839,173.914,0.250],[0.00000000,-0.70419257,0.71000903,-0.00000000],[1,0,-1,1],[9E+09,9E+09,9E+09,9E+09,9E+09,9E+09]],v30,z1,Extruder_Baugruppe \WObj:=wobjHeizbett;
		ExtruderSpeed 0.000;
		MoveL [[200.839,134.526,0.250],[0.00000000,-0.70419257,0.71000903,0.00000000],[1,0,-1,1],[9E+09,9E+09,9E+09,9E+09,9E+09,9E+09]],v30,z1,Extruder_Baugruppe \WObj:=wobjHeizbett;
		ExtruderSpeed 3.000;
		MoveL [[119.161,134.526,0.250],[0.00000000,-0.70419257,0.71000903,-0.00000000],[1,0,-1,1],[9E+09,9E+09,9E+09,9E+09,9E+09,9E+09]],v30,z1,Extruder_Baugruppe \WObj:=wobjHeizbett;
		ExtruderSpeed 0.000;
		MoveL [[119.161,134.526,0.350],[0.00000000,-0.70419257,0.71000903,0.00000000],[1,0,-1,1],[9E+09,9E+09,9E+09,9E+09,9E+09,9E+09]],v50,z1,Extruder_Baugruppe \WObj:=wobjHeizbett;
		MoveL [[117.642,175.940,0.350],[0.00000000,-0.70419257,0.71000903,0.00000000],[1,0,-1,1],[9E+09,9E+09,9E+09,9E+09,9E+09,9E+09]],v1000,z1,Extruder_Baugruppe \WObj:=wobjHeizbett;
		MoveL [[117.642,175.940,0.250],[0.00000000,-0.70419257,0.71000903,-0.00000000],[1,0,-1,1],[9E+09,9E+09,9E+09,9E+09,9E+09,9E+09]],v50,z1,Extruder_Baugruppe \WObj:=wobjHeizbett;
		ExtruderSpeed 3.000;
		MoveL [[117.642,187.446,0.250],[0.00000000,-0.70419257,0.71000903,0.00000000],[1,0,-1,1],[9E+09,9E+09,9E+09,9E+09,9E+09,9E+09]],v30,z1,Extruder_Baugruppe \WObj:=wobjHeizbett;
		MoveL [[181.896,187.446,0.250],[0.00000000,-0.70419257,0.71000903,0.00000000],[1,0,-1,1],[9E+09,9E+09,9E+09,9E+09,9E+09,9E+09]],v30,z1,Extruder_Baugruppe \WObj:=wobjHeizbett;
		ExtruderSpeed 0.000;
		MoveL [[181.896,175.940,0.250],[0.00000000,-0.70419257,0.71000903,-0.00000000],[1,0,-1,1],[9E+09,9E+09,9E+09,9E+09,9E+09,9E+09]],v30,z1,Extruder_Baugruppe \WObj:=wobjHeizbett;
		ExtruderSpeed 3.000;
		MoveL [[117.642,175.940,0.250],[0.00000000,-0.70419257,0.71000903,-0.00000000],[1,0,-1,1],[9E+09,9E+09,9E+09,9E+09,9E+09,9E+09]],v30,z1,Extruder_Baugruppe \WObj:=wobjHeizbett;
		ExtruderSpeed 0.000;
		MoveL [[118.148,176.446,0.250],[0.00000000,-0.70419257,0.71000903,-0.00000000],[1,0,-1,1],[9E+09,9E+09,9E+09,9E+09,9E+09,9E+09]],v50,z1,Extruder_Baugruppe \WObj:=wobjHeizbett;
		MoveL [[118.148,186.940,0.250],[0.00000000,-0.70419257,0.71000903,-0.00000000],[1,0,-1,1],[9E+09,9E+09,9E+09,9E+09,9E+09,9E+09]],v30,z1,Extruder_Baugruppe \WObj:=wobjHeizbett;
		ExtruderSpeed 3.000;
		MoveL [[181.390,186.940,0.250],[0.00000000,-0.70419257,0.71000903,-0.00000000],[1,0,-1,1],[9E+09,9E+09,9E+09,9E+09,9E+09,9E+09]],v30,z1,Extruder_Baugruppe \WObj:=wobjHeizbett;
		ExtruderSpeed 0.000;
		MoveL [[181.390,176.446,0.250],[0.00000000,-0.70419257,0.71000903,0.00000000],[1,0,-1,1],[9E+09,9E+09,9E+09,9E+09,9E+09,9E+09]],v30,z1,Extruder_Baugruppe \WObj:=wobjHeizbett;
		ExtruderSpeed 3.000;
		MoveL [[118.148,176.446,0.250],[0.00000000,-0.70419257,0.71000903,-0.00000000],[1,0,-1,1],[9E+09,9E+09,9E+09,9E+09,9E+09,9E+09]],v30,z1,Extruder_Baugruppe \WObj:=wobjHeizbett;
		ExtruderSpeed 0.000;
		MoveL [[118.654,176.952,0.250],[0.00000000,-0.70419257,0.71000903,-0.00000000],[1,0,-1,1],[9E+09,9E+09,9E+09,9E+09,9E+09,9E+09]],v50,z1,Extruder_Baugruppe \WObj:=wobjHeizbett;
		MoveL [[118.654,186.433,0.250],[0.00000000,-0.70419257,0.71000903,-0.00000000],[1,0,-1,1],[9E+09,9E+09,9E+09,9E+09,9E+09,9E+09]],v30,z1,Extruder_Baugruppe \WObj:=wobjHeizbett;
		ExtruderSpeed 3.000;
		MoveL [[180.884,186.433,0.250],[0.00000000,-0.70419257,0.71000903,-0.00000000],[1,0,-1,1],[9E+09,9E+09,9E+09,9E+09,9E+09,9E+09]],v30,z1,Extruder_Baugruppe \WObj:=wobjHeizbett;
		ExtruderSpeed 0.000;
		MoveL [[180.883,176.952,0.250],[0.00000000,-0.70419257,0.71000903,-0.00000000],[1,0,-1,1],[9E+09,9E+09,9E+09,9E+09,9E+09,9E+09]],v30,z1,Extruder_Baugruppe \WObj:=wobjHeizbett;
		ExtruderSpeed 3.000;
		MoveL [[118.654,176.952,0.250],[0.00000000,-0.70419257,0.71000903,-0.00000000],[1,0,-1,1],[9E+09,9E+09,9E+09,9E+09,9E+09,9E+09]],v30,z1,Extruder_Baugruppe \WObj:=wobjHeizbett;
		ExtruderSpeed 0.000;
		MoveL [[119.161,177.459,0.250],[0.00000000,-0.70419257,0.71000903,-0.00000000],[1,0,-1,1],[9E+09,9E+09,9E+09,9E+09,9E+09,9E+09]],v50,z1,Extruder_Baugruppe \WObj:=wobjHeizbett;
		MoveL [[119.161,185.927,0.250],[0.00000000,-0.70419257,0.71000903,-0.00000000],[1,0,-1,1],[9E+09,9E+09,9E+09,9E+09,9E+09,9E+09]],v30,z1,Extruder_Baugruppe \WObj:=wobjHeizbett;
		ExtruderSpeed 3.000;
		MoveL [[180.377,185.927,0.250],[0.00000000,-0.70419257,0.71000903,-0.00000000],[1,0,-1,1],[9E+09,9E+09,9E+09,9E+09,9E+09,9E+09]],v30,z1,Extruder_Baugruppe \WObj:=wobjHeizbett;
		ExtruderSpeed 0.000;
		MoveL [[180.377,177.459,0.250],[0.00000000,-0.70419257,0.71000903,-0.00000000],[1,0,-1,1],[9E+09,9E+09,9E+09,9E+09,9E+09,9E+09]],v30,z1,Extruder_Baugruppe \WObj:=wobjHeizbett;
		ExtruderSpeed 3.000;
		MoveL [[119.161,177.459,0.250],[0.00000000,-0.70419257,0.71000903,-0.00000000],[1,0,-1,1],[9E+09,9E+09,9E+09,9E+09,9E+09,9E+09]],v30,z1,Extruder_Baugruppe \WObj:=wobjHeizbett;
		ExtruderSpeed 0.000;
		MoveL [[119.534,177.832,0.250],[0.00000000,-0.70419257,0.71000903,-0.00000000],[1,0,-1,1],[9E+09,9E+09,9E+09,9E+09,9E+09,9E+09]],v50,z1,Extruder_Baugruppe \WObj:=wobjHeizbett;
		MoveL [[120.250,177.832,0.250],[0.00000000,-0.70419257,0.71000903,-0.00000000],[1,0,-1,1],[9E+09,9E+09,9E+09,9E+09,9E+09,9E+09]],v1000,z1,Extruder_Baugruppe \WObj:=wobjHeizbett;
		MoveL [[119.534,178.548,0.250],[0.00000000,-0.70419257,0.71000903,-0.00000000],[1,0,-1,1],[9E+09,9E+09,9E+09,9E+09,9E+09,9E+09]],v30,z1,Extruder_Baugruppe \WObj:=wobjHeizbett;
		MoveL [[119.534,179.264,0.250],[0.00000000,-0.70419257,0.71000903,-0.00000000],[1,0,-1,1],[9E+09,9E+09,9E+09,9E+09,9E+09,9E+09]],v50,z1,Extruder_Baugruppe \WObj:=wobjHeizbett;
		ExtruderSpeed 3.000;
		MoveL [[120.966,177.832,0.250],[0.00000000,-0.70419257,0.71000903,-0.00000000],[1,0,-1,1],[9E+09,9E+09,9E+09,9E+09,9E+09,9E+09]],v30,z1,Extruder_Baugruppe \WObj:=wobjHeizbett;
		ExtruderSpeed 0.000;
		MoveL [[121.682,177.832,0.250],[0.00000000,-0.70419257,0.71000903,0.00000000],[1,0,-1,1],[9E+09,9E+09,9E+09,9E+09,9E+09,9E+09]],v50,z1,Extruder_Baugruppe \WObj:=wobjHeizbett;
		ExtruderSpeed 3.000;
		MoveL [[119.534,179.980,0.250],[0.00000000,-0.70419257,0.71000903,-0.00000000],[1,0,-1,1],[9E+09,9E+09,9E+09,9E+09,9E+09,9E+09]],v30,z1,Extruder_Baugruppe \WObj:=wobjHeizbett;
		ExtruderSpeed 0.000;
		MoveL [[119.534,180.696,0.250],[0.00000000,-0.70419257,0.71000903,-0.00000000],[1,0,-1,1],[9E+09,9E+09,9E+09,9E+09,9E+09,9E+09]],v50,z1,Extruder_Baugruppe \WObj:=wobjHeizbett;
		ExtruderSpeed 3.000;
		MoveL [[122.398,177.832,0.250],[0.00000000,-0.70419257,0.71000903,-0.00000000],[1,0,-1,1],[9E+09,9E+09,9E+09,9E+09,9E+09,9E+09]],v30,z1,Extruder_Baugruppe \WObj:=wobjHeizbett;
		ExtruderSpeed 0.000;
		MoveL [[123.115,177.832,0.250],[0.00000000,-0.70419257,0.71000903,-0.00000000],[1,0,-1,1],[9E+09,9E+09,9E+09,9E+09,9E+09,9E+09]],v50,z1,Extruder_Baugruppe \WObj:=wobjHeizbett;
		ExtruderSpeed 3.000;
		MoveL [[119.534,181.412,0.250],[0.00000000,-0.70419257,0.71000903,-0.00000000],[1,0,-1,1],[9E+09,9E+09,9E+09,9E+09,9E+09,9E+09]],v30,z1,Extruder_Baugruppe \WObj:=wobjHeizbett;
		ExtruderSpeed 0.000;
		MoveL [[119.534,182.129,0.250],[0.00000000,-0.70419257,0.71000903,-0.00000000],[1,0,-1,1],[9E+09,9E+09,9E+09,9E+09,9E+09,9E+09]],v50,z1,Extruder_Baugruppe \WObj:=wobjHeizbett;
		ExtruderSpeed 3.000;
		MoveL [[123.831,177.832,0.250],[0.00000000,-0.70419257,0.71000903,-0.00000000],[1,0,-1,1],[9E+09,9E+09,9E+09,9E+09,9E+09,9E+09]],v30,z1,Extruder_Baugruppe \WObj:=wobjHeizbett;
		ExtruderSpeed 0.000;
		MoveL [[124.547,177.832,0.250],[0.00000000,-0.70419257,0.71000903,-0.00000000],[1,0,-1,1],[9E+09,9E+09,9E+09,9E+09,9E+09,9E+09]],v50,z1,Extruder_Baugruppe \WObj:=wobjHeizbett;
		ExtruderSpeed 3.000;
		MoveL [[119.534,182.844,0.250],[0.00000000,-0.70419257,0.71000903,0.00000000],[1,0,-1,1],[9E+09,9E+09,9E+09,9E+09,9E+09,9E+09]],v30,z1,Extruder_Baugruppe \WObj:=wobjHeizbett;
		ExtruderSpeed 0.000;
		MoveL [[119.534,183.561,0.250],[0.00000000,-0.70419257,0.71000903,-0.00000000],[1,0,-1,1],[9E+09,9E+09,9E+09,9E+09,9E+09,9E+09]],v50,z1,Extruder_Baugruppe \WObj:=wobjHeizbett;
		ExtruderSpeed 3.000;
		MoveL [[125.263,177.832,0.250],[0.00000000,-0.70419257,0.71000903,-0.00000000],[1,0,-1,1],[9E+09,9E+09,9E+09,9E+09,9E+09,9E+09]],v30,z1,Extruder_Baugruppe \WObj:=wobjHeizbett;
		ExtruderSpeed 0.000;
		MoveL [[125.979,177.832,0.250],[0.00000000,-0.70419257,0.71000903,-0.00000000],[1,0,-1,1],[9E+09,9E+09,9E+09,9E+09,9E+09,9E+09]],v50,z1,Extruder_Baugruppe \WObj:=wobjHeizbett;
		ExtruderSpeed 3.000;
		MoveL [[119.534,184.277,0.250],[0.00000000,-0.70419257,0.71000903,0.00000000],[1,0,-1,1],[9E+09,9E+09,9E+09,9E+09,9E+09,9E+09]],v30,z1,Extruder_Baugruppe \WObj:=wobjHeizbett;
		ExtruderSpeed 0.000;
		MoveL [[119.534,184.993,0.250],[0.00000000,-0.70419257,0.71000903,-0.00000000],[1,0,-1,1],[9E+09,9E+09,9E+09,9E+09,9E+09,9E+09]],v50,z1,Extruder_Baugruppe \WObj:=wobjHeizbett;
		ExtruderSpeed 3.000;
		MoveL [[126.695,177.832,0.250],[0.00000000,-0.70419257,0.71000903,-0.00000000],[1,0,-1,1],[9E+09,9E+09,9E+09,9E+09,9E+09,9E+09]],v30,z1,Extruder_Baugruppe \WObj:=wobjHeizbett;
		ExtruderSpeed 0.000;
		MoveL [[127.411,177.832,0.250],[0.00000000,-0.70419257,0.71000903,-0.00000000],[1,0,-1,1],[9E+09,9E+09,9E+09,9E+09,9E+09,9E+09]],v50,z1,Extruder_Baugruppe \WObj:=wobjHeizbett;
		ExtruderSpeed 3.000;
		MoveL [[119.689,185.554,0.250],[0.00000000,-0.70419257,0.71000903,0.00000000],[1,0,-1,1],[9E+09,9E+09,9E+09,9E+09,9E+09,9E+09]],v30,z1,Extruder_Baugruppe \WObj:=wobjHeizbett;
		ExtruderSpeed 0.000;
		MoveL [[120.406,185.554,0.250],[0.00000000,-0.70419257,0.71000903,-0.00000000],[1,0,-1,1],[9E+09,9E+09,9E+09,9E+09,9E+09,9E+09]],v50,z1,Extruder_Baugruppe \WObj:=wobjHeizbett;
		MoveL [[128.127,177.832,0.250],[0.00000000,-0.70419257,0.71000903,-0.00000000],[1,0,-1,1],[9E+09,9E+09,9E+09,9E+09,9E+09,9E+09]],v30,z1,Extruder_Baugruppe \WObj:=wobjHeizbett;
		MoveL [[128.843,177.832,0.250],[0.00000000,-0.70419257,0.71000903,-0.00000000],[1,0,-1,1],[9E+09,9E+09,9E+09,9E+09,9E+09,9E+09]],v50,z1,Extruder_Baugruppe \WObj:=wobjHeizbett;
		MoveL [[121.122,185.554,0.250],[0.00000000,-0.70419257,0.71000903,-0.00000000],[1,0,-1,1],[9E+09,9E+09,9E+09,9E+09,9E+09,9E+09]],v30,z1,Extruder_Baugruppe \WObj:=wobjHeizbett;
		MoveL [[121.838,185.554,0.250],[0.00000000,-0.70419257,0.71000903,-0.00000000],[1,0,-1,1],[9E+09,9E+09,9E+09,9E+09,9E+09,9E+09]],v50,z1,Extruder_Baugruppe \WObj:=wobjHeizbett;
		MoveL [[129.559,177.832,0.250],[0.00000000,-0.70419257,0.71000903,-0.00000000],[1,0,-1,1],[9E+09,9E+09,9E+09,9E+09,9E+09,9E+09]],v30,z1,Extruder_Baugruppe \WObj:=wobjHeizbett;
		MoveL [[130.275,177.832,0.250],[0.00000000,-0.70419257,0.71000903,-0.00000000],[1,0,-1,1],[9E+09,9E+09,9E+09,9E+09,9E+09,9E+09]],v50,z1,Extruder_Baugruppe \WObj:=wobjHeizbett;
		MoveL [[122.554,185.554,0.250],[0.00000000,-0.70419257,0.71000903,-0.00000000],[1,0,-1,1],[9E+09,9E+09,9E+09,9E+09,9E+09,9E+09]],v30,z1,Extruder_Baugruppe \WObj:=wobjHeizbett;
		MoveL [[123.270,185.554,0.250],[0.00000000,-0.70419257,0.71000903,-0.00000000],[1,0,-1,1],[9E+09,9E+09,9E+09,9E+09,9E+09,9E+09]],v50,z1,Extruder_Baugruppe \WObj:=wobjHeizbett;
		MoveL [[130.992,177.832,0.250],[0.00000000,-0.70419257,0.71000903,-0.00000000],[1,0,-1,1],[9E+09,9E+09,9E+09,9E+09,9E+09,9E+09]],v30,z1,Extruder_Baugruppe \WObj:=wobjHeizbett;
		MoveL [[131.708,177.832,0.250],[0.00000000,-0.70419257,0.71000903,0.00000000],[1,0,-1,1],[9E+09,9E+09,9E+09,9E+09,9E+09,9E+09]],v50,z1,Extruder_Baugruppe \WObj:=wobjHeizbett;
		MoveL [[123.986,185.554,0.250],[0.00000000,-0.70419257,0.71000903,-0.00000000],[1,0,-1,1],[9E+09,9E+09,9E+09,9E+09,9E+09,9E+09]],v30,z1,Extruder_Baugruppe \WObj:=wobjHeizbett;
		MoveL [[124.702,185.554,0.250],[0.00000000,-0.70419257,0.71000903,-0.00000000],[1,0,-1,1],[9E+09,9E+09,9E+09,9E+09,9E+09,9E+09]],v50,z1,Extruder_Baugruppe \WObj:=wobjHeizbett;
		MoveL [[132.424,177.832,0.250],[0.00000000,-0.70419257,0.71000903,-0.00000000],[1,0,-1,1],[9E+09,9E+09,9E+09,9E+09,9E+09,9E+09]],v30,z1,Extruder_Baugruppe \WObj:=wobjHeizbett;
		MoveL [[133.140,177.832,0.250],[0.00000000,-0.70419257,0.71000903,-0.00000000],[1,0,-1,1],[9E+09,9E+09,9E+09,9E+09,9E+09,9E+09]],v50,z1,Extruder_Baugruppe \WObj:=wobjHeizbett;
		MoveL [[125.418,185.554,0.250],[0.00000000,-0.70419257,0.71000903,0.00000000],[1,0,-1,1],[9E+09,9E+09,9E+09,9E+09,9E+09,9E+09]],v30,z1,Extruder_Baugruppe \WObj:=wobjHeizbett;
		MoveL [[126.134,185.554,0.250],[0.00000000,-0.70419257,0.71000903,-0.00000000],[1,0,-1,1],[9E+09,9E+09,9E+09,9E+09,9E+09,9E+09]],v50,z1,Extruder_Baugruppe \WObj:=wobjHeizbett;
		MoveL [[133.856,177.832,0.250],[0.00000000,-0.70419257,0.71000903,-0.00000000],[1,0,-1,1],[9E+09,9E+09,9E+09,9E+09,9E+09,9E+09]],v30,z1,Extruder_Baugruppe \WObj:=wobjHeizbett;
		MoveL [[134.572,177.832,0.250],[0.00000000,-0.70419257,0.71000903,0.00000000],[1,0,-1,1],[9E+09,9E+09,9E+09,9E+09,9E+09,9E+09]],v50,z1,Extruder_Baugruppe \WObj:=wobjHeizbett;
		MoveL [[126.850,185.553,0.250],[0.00000000,-0.70419257,0.71000903,0.00000000],[1,0,-1,1],[9E+09,9E+09,9E+09,9E+09,9E+09,9E+09]],v30,z1,Extruder_Baugruppe \WObj:=wobjHeizbett;
		MoveL [[127.566,185.553,0.250],[0.00000000,-0.70419257,0.71000903,0.00000000],[1,0,-1,1],[9E+09,9E+09,9E+09,9E+09,9E+09,9E+09]],v50,z1,Extruder_Baugruppe \WObj:=wobjHeizbett;
		MoveL [[135.288,177.832,0.250],[0.00000000,-0.70419257,0.71000903,0.00000000],[1,0,-1,1],[9E+09,9E+09,9E+09,9E+09,9E+09,9E+09]],v30,z1,Extruder_Baugruppe \WObj:=wobjHeizbett;
		MoveL [[136.004,177.832,0.250],[0.00000000,-0.70419257,0.71000903,-0.00000000],[1,0,-1,1],[9E+09,9E+09,9E+09,9E+09,9E+09,9E+09]],v50,z1,Extruder_Baugruppe \WObj:=wobjHeizbett;
		MoveL [[128.282,185.553,0.250],[0.00000000,-0.70419257,0.71000903,-0.00000000],[1,0,-1,1],[9E+09,9E+09,9E+09,9E+09,9E+09,9E+09]],v30,z1,Extruder_Baugruppe \WObj:=wobjHeizbett;
		MoveL [[128.999,185.554,0.250],[0.00000000,-0.70419257,0.71000903,-0.00000000],[1,0,-1,1],[9E+09,9E+09,9E+09,9E+09,9E+09,9E+09]],v50,z1,Extruder_Baugruppe \WObj:=wobjHeizbett;
		MoveL [[136.720,177.832,0.250],[0.00000000,-0.70419257,0.71000903,0.00000000],[1,0,-1,1],[9E+09,9E+09,9E+09,9E+09,9E+09,9E+09]],v30,z1,Extruder_Baugruppe \WObj:=wobjHeizbett;
		MoveL [[137.436,177.832,0.250],[0.00000000,-0.70419257,0.71000903,-0.00000000],[1,0,-1,1],[9E+09,9E+09,9E+09,9E+09,9E+09,9E+09]],v50,z1,Extruder_Baugruppe \WObj:=wobjHeizbett;
		MoveL [[129.715,185.554,0.250],[0.00000000,-0.70419257,0.71000903,-0.00000000],[1,0,-1,1],[9E+09,9E+09,9E+09,9E+09,9E+09,9E+09]],v30,z1,Extruder_Baugruppe \WObj:=wobjHeizbett;
		MoveL [[130.431,185.553,0.250],[0.00000000,-0.70419257,0.71000903,0.00000000],[1,0,-1,1],[9E+09,9E+09,9E+09,9E+09,9E+09,9E+09]],v50,z1,Extruder_Baugruppe \WObj:=wobjHeizbett;
		MoveL [[138.152,177.832,0.250],[0.00000000,-0.70419257,0.71000903,0.00000000],[1,0,-1,1],[9E+09,9E+09,9E+09,9E+09,9E+09,9E+09]],v30,z1,Extruder_Baugruppe \WObj:=wobjHeizbett;
		MoveL [[138.868,177.832,0.250],[0.00000000,-0.70419257,0.71000903,-0.00000000],[1,0,-1,1],[9E+09,9E+09,9E+09,9E+09,9E+09,9E+09]],v50,z1,Extruder_Baugruppe \WObj:=wobjHeizbett;
		MoveL [[131.147,185.553,0.250],[0.00000000,-0.70419257,0.71000903,-0.00000000],[1,0,-1,1],[9E+09,9E+09,9E+09,9E+09,9E+09,9E+09]],v30,z1,Extruder_Baugruppe \WObj:=wobjHeizbett;
		MoveL [[131.863,185.554,0.250],[0.00000000,-0.70419257,0.71000903,0.00000000],[1,0,-1,1],[9E+09,9E+09,9E+09,9E+09,9E+09,9E+09]],v50,z1,Extruder_Baugruppe \WObj:=wobjHeizbett;
		MoveL [[139.584,177.832,0.250],[0.00000000,-0.70419257,0.71000903,-0.00000000],[1,0,-1,1],[9E+09,9E+09,9E+09,9E+09,9E+09,9E+09]],v30,z1,Extruder_Baugruppe \WObj:=wobjHeizbett;
		MoveL [[140.301,177.832,0.250],[0.00000000,-0.70419257,0.71000903,0.00000000],[1,0,-1,1],[9E+09,9E+09,9E+09,9E+09,9E+09,9E+09]],v50,z1,Extruder_Baugruppe \WObj:=wobjHeizbett;
		MoveL [[132.579,185.554,0.250],[0.00000000,-0.70419257,0.71000903,-0.00000000],[1,0,-1,1],[9E+09,9E+09,9E+09,9E+09,9E+09,9E+09]],v30,z1,Extruder_Baugruppe \WObj:=wobjHeizbett;
		MoveL [[133.295,185.554,0.250],[0.00000000,-0.70419257,0.71000903,-0.00000000],[1,0,-1,1],[9E+09,9E+09,9E+09,9E+09,9E+09,9E+09]],v50,z1,Extruder_Baugruppe \WObj:=wobjHeizbett;
		MoveL [[141.017,177.832,0.250],[0.00000000,-0.70419257,0.71000903,0.00000000],[1,0,-1,1],[9E+09,9E+09,9E+09,9E+09,9E+09,9E+09]],v30,z1,Extruder_Baugruppe \WObj:=wobjHeizbett;
		MoveL [[141.733,177.832,0.250],[0.00000000,-0.70419257,0.71000903,-0.00000000],[1,0,-1,1],[9E+09,9E+09,9E+09,9E+09,9E+09,9E+09]],v50,z1,Extruder_Baugruppe \WObj:=wobjHeizbett;
		MoveL [[134.011,185.554,0.250],[0.00000000,-0.70419257,0.71000903,-0.00000000],[1,0,-1,1],[9E+09,9E+09,9E+09,9E+09,9E+09,9E+09]],v30,z1,Extruder_Baugruppe \WObj:=wobjHeizbett;
		MoveL [[134.727,185.554,0.250],[0.00000000,-0.70419257,0.71000903,-0.00000000],[1,0,-1,1],[9E+09,9E+09,9E+09,9E+09,9E+09,9E+09]],v50,z1,Extruder_Baugruppe \WObj:=wobjHeizbett;
		MoveL [[142.449,177.832,0.250],[0.00000000,-0.70419257,0.71000903,-0.00000000],[1,0,-1,1],[9E+09,9E+09,9E+09,9E+09,9E+09,9E+09]],v30,z1,Extruder_Baugruppe \WObj:=wobjHeizbett;
		MoveL [[143.165,177.832,0.250],[0.00000000,-0.70419257,0.71000903,0.00000000],[1,0,-1,1],[9E+09,9E+09,9E+09,9E+09,9E+09,9E+09]],v50,z1,Extruder_Baugruppe \WObj:=wobjHeizbett;
		MoveL [[135.443,185.554,0.250],[0.00000000,-0.70419257,0.71000903,0.00000000],[1,0,-1,1],[9E+09,9E+09,9E+09,9E+09,9E+09,9E+09]],v30,z1,Extruder_Baugruppe \WObj:=wobjHeizbett;
		MoveL [[136.159,185.554,0.250],[0.00000000,-0.70419257,0.71000903,-0.00000000],[1,0,-1,1],[9E+09,9E+09,9E+09,9E+09,9E+09,9E+09]],v50,z1,Extruder_Baugruppe \WObj:=wobjHeizbett;
		MoveL [[143.881,177.832,0.250],[0.00000000,-0.70419257,0.71000903,-0.00000000],[1,0,-1,1],[9E+09,9E+09,9E+09,9E+09,9E+09,9E+09]],v30,z1,Extruder_Baugruppe \WObj:=wobjHeizbett;
		MoveL [[144.597,177.832,0.250],[0.00000000,-0.70419257,0.71000903,-0.00000000],[1,0,-1,1],[9E+09,9E+09,9E+09,9E+09,9E+09,9E+09]],v50,z1,Extruder_Baugruppe \WObj:=wobjHeizbett;
		MoveL [[136.876,185.554,0.250],[0.00000000,-0.70419257,0.71000903,-0.00000000],[1,0,-1,1],[9E+09,9E+09,9E+09,9E+09,9E+09,9E+09]],v30,z1,Extruder_Baugruppe \WObj:=wobjHeizbett;
		MoveL [[137.592,185.554,0.250],[0.00000000,-0.70419257,0.71000903,0.00000000],[1,0,-1,1],[9E+09,9E+09,9E+09,9E+09,9E+09,9E+09]],v50,z1,Extruder_Baugruppe \WObj:=wobjHeizbett;
		MoveL [[145.313,177.832,0.250],[0.00000000,-0.70419257,0.71000903,-0.00000000],[1,0,-1,1],[9E+09,9E+09,9E+09,9E+09,9E+09,9E+09]],v30,z1,Extruder_Baugruppe \WObj:=wobjHeizbett;
		MoveL [[146.029,177.832,0.250],[0.00000000,-0.70419257,0.71000903,-0.00000000],[1,0,-1,1],[9E+09,9E+09,9E+09,9E+09,9E+09,9E+09]],v50,z1,Extruder_Baugruppe \WObj:=wobjHeizbett;
		MoveL [[138.308,185.554,0.250],[0.00000000,-0.70419257,0.71000903,0.00000000],[1,0,-1,1],[9E+09,9E+09,9E+09,9E+09,9E+09,9E+09]],v30,z1,Extruder_Baugruppe \WObj:=wobjHeizbett;
		MoveL [[139.024,185.554,0.250],[0.00000000,-0.70419257,0.71000903,-0.00000000],[1,0,-1,1],[9E+09,9E+09,9E+09,9E+09,9E+09,9E+09]],v50,z1,Extruder_Baugruppe \WObj:=wobjHeizbett;
		MoveL [[146.745,177.832,0.250],[0.00000000,-0.70419257,0.71000903,-0.00000000],[1,0,-1,1],[9E+09,9E+09,9E+09,9E+09,9E+09,9E+09]],v30,z1,Extruder_Baugruppe \WObj:=wobjHeizbett;
		MoveL [[147.461,177.832,0.250],[0.00000000,-0.70419257,0.71000903,-0.00000000],[1,0,-1,1],[9E+09,9E+09,9E+09,9E+09,9E+09,9E+09]],v50,z1,Extruder_Baugruppe \WObj:=wobjHeizbett;
		MoveL [[139.740,185.554,0.250],[0.00000000,-0.70419257,0.71000903,-0.00000000],[1,0,-1,1],[9E+09,9E+09,9E+09,9E+09,9E+09,9E+09]],v30,z1,Extruder_Baugruppe \WObj:=wobjHeizbett;
		MoveL [[140.456,185.554,0.250],[0.00000000,-0.70419257,0.71000903,-0.00000000],[1,0,-1,1],[9E+09,9E+09,9E+09,9E+09,9E+09,9E+09]],v50,z1,Extruder_Baugruppe \WObj:=wobjHeizbett;
		MoveL [[148.177,177.832,0.250],[0.00000000,-0.70419257,0.71000903,0.00000000],[1,0,-1,1],[9E+09,9E+09,9E+09,9E+09,9E+09,9E+09]],v30,z1,Extruder_Baugruppe \WObj:=wobjHeizbett;
		MoveL [[148.894,177.832,0.250],[0.00000000,-0.70419257,0.71000903,-0.00000000],[1,0,-1,1],[9E+09,9E+09,9E+09,9E+09,9E+09,9E+09]],v50,z1,Extruder_Baugruppe \WObj:=wobjHeizbett;
		MoveL [[141.172,185.554,0.250],[0.00000000,-0.70419257,0.71000903,-0.00000000],[1,0,-1,1],[9E+09,9E+09,9E+09,9E+09,9E+09,9E+09]],v30,z1,Extruder_Baugruppe \WObj:=wobjHeizbett;
		MoveL [[141.888,185.553,0.250],[0.00000000,-0.70419257,0.71000903,-0.00000000],[1,0,-1,1],[9E+09,9E+09,9E+09,9E+09,9E+09,9E+09]],v50,z1,Extruder_Baugruppe \WObj:=wobjHeizbett;
		MoveL [[149.610,177.832,0.250],[0.00000000,-0.70419257,0.71000903,-0.00000000],[1,0,-1,1],[9E+09,9E+09,9E+09,9E+09,9E+09,9E+09]],v30,z1,Extruder_Baugruppe \WObj:=wobjHeizbett;
		MoveL [[150.326,177.832,0.250],[0.00000000,-0.70419257,0.71000903,0.00000000],[1,0,-1,1],[9E+09,9E+09,9E+09,9E+09,9E+09,9E+09]],v50,z1,Extruder_Baugruppe \WObj:=wobjHeizbett;
		MoveL [[142.604,185.554,0.250],[0.00000000,-0.70419257,0.71000903,-0.00000000],[1,0,-1,1],[9E+09,9E+09,9E+09,9E+09,9E+09,9E+09]],v30,z1,Extruder_Baugruppe \WObj:=wobjHeizbett;
		MoveL [[143.320,185.554,0.250],[0.00000000,-0.70419257,0.71000903,-0.00000000],[1,0,-1,1],[9E+09,9E+09,9E+09,9E+09,9E+09,9E+09]],v50,z1,Extruder_Baugruppe \WObj:=wobjHeizbett;
		MoveL [[151.042,177.832,0.250],[0.00000000,-0.70419257,0.71000903,-0.00000000],[1,0,-1,1],[9E+09,9E+09,9E+09,9E+09,9E+09,9E+09]],v30,z1,Extruder_Baugruppe \WObj:=wobjHeizbett;
		MoveL [[151.758,177.832,0.250],[0.00000000,-0.70419257,0.71000903,-0.00000000],[1,0,-1,1],[9E+09,9E+09,9E+09,9E+09,9E+09,9E+09]],v50,z1,Extruder_Baugruppe \WObj:=wobjHeizbett;
		MoveL [[144.036,185.553,0.250],[0.00000000,-0.70419257,0.71000903,-0.00000000],[1,0,-1,1],[9E+09,9E+09,9E+09,9E+09,9E+09,9E+09]],v30,z1,Extruder_Baugruppe \WObj:=wobjHeizbett;
		MoveL [[144.753,185.553,0.250],[0.00000000,-0.70419257,0.71000903,-0.00000000],[1,0,-1,1],[9E+09,9E+09,9E+09,9E+09,9E+09,9E+09]],v50,z1,Extruder_Baugruppe \WObj:=wobjHeizbett;
		MoveL [[152.474,177.832,0.250],[0.00000000,-0.70419257,0.71000903,0.00000000],[1,0,-1,1],[9E+09,9E+09,9E+09,9E+09,9E+09,9E+09]],v30,z1,Extruder_Baugruppe \WObj:=wobjHeizbett;
		MoveL [[153.190,177.832,0.250],[0.00000000,-0.70419257,0.71000903,-0.00000000],[1,0,-1,1],[9E+09,9E+09,9E+09,9E+09,9E+09,9E+09]],v50,z1,Extruder_Baugruppe \WObj:=wobjHeizbett;
		MoveL [[145.469,185.553,0.250],[0.00000000,-0.70419257,0.71000903,0.00000000],[1,0,-1,1],[9E+09,9E+09,9E+09,9E+09,9E+09,9E+09]],v30,z1,Extruder_Baugruppe \WObj:=wobjHeizbett;
		MoveL [[146.185,185.554,0.250],[0.00000000,-0.70419257,0.71000903,-0.00000000],[1,0,-1,1],[9E+09,9E+09,9E+09,9E+09,9E+09,9E+09]],v50,z1,Extruder_Baugruppe \WObj:=wobjHeizbett;
		MoveL [[153.906,177.832,0.250],[0.00000000,-0.70419257,0.71000903,-0.00000000],[1,0,-1,1],[9E+09,9E+09,9E+09,9E+09,9E+09,9E+09]],v30,z1,Extruder_Baugruppe \WObj:=wobjHeizbett;
		MoveL [[154.622,177.832,0.250],[0.00000000,-0.70419257,0.71000903,-0.00000000],[1,0,-1,1],[9E+09,9E+09,9E+09,9E+09,9E+09,9E+09]],v50,z1,Extruder_Baugruppe \WObj:=wobjHeizbett;
		MoveL [[146.901,185.553,0.250],[0.00000000,-0.70419257,0.71000903,-0.00000000],[1,0,-1,1],[9E+09,9E+09,9E+09,9E+09,9E+09,9E+09]],v30,z1,Extruder_Baugruppe \WObj:=wobjHeizbett;
		MoveL [[147.617,185.553,0.250],[0.00000000,-0.70419257,0.71000903,-0.00000000],[1,0,-1,1],[9E+09,9E+09,9E+09,9E+09,9E+09,9E+09]],v50,z1,Extruder_Baugruppe \WObj:=wobjHeizbett;
		MoveL [[155.338,177.832,0.250],[0.00000000,-0.70419257,0.71000903,-0.00000000],[1,0,-1,1],[9E+09,9E+09,9E+09,9E+09,9E+09,9E+09]],v30,z1,Extruder_Baugruppe \WObj:=wobjHeizbett;
		MoveL [[156.054,177.832,0.250],[0.00000000,-0.70419257,0.71000903,0.00000000],[1,0,-1,1],[9E+09,9E+09,9E+09,9E+09,9E+09,9E+09]],v50,z1,Extruder_Baugruppe \WObj:=wobjHeizbett;
		MoveL [[148.333,185.554,0.250],[0.00000000,-0.70419257,0.71000903,-0.00000000],[1,0,-1,1],[9E+09,9E+09,9E+09,9E+09,9E+09,9E+09]],v30,z1,Extruder_Baugruppe \WObj:=wobjHeizbett;
		MoveL [[149.049,185.554,0.250],[0.00000000,-0.70419257,0.71000903,-0.00000000],[1,0,-1,1],[9E+09,9E+09,9E+09,9E+09,9E+09,9E+09]],v50,z1,Extruder_Baugruppe \WObj:=wobjHeizbett;
		MoveL [[156.771,177.832,0.250],[0.00000000,-0.70419257,0.71000903,-0.00000000],[1,0,-1,1],[9E+09,9E+09,9E+09,9E+09,9E+09,9E+09]],v30,z1,Extruder_Baugruppe \WObj:=wobjHeizbett;
		MoveL [[157.487,177.832,0.250],[0.00000000,-0.70419257,0.71000903,-0.00000000],[1,0,-1,1],[9E+09,9E+09,9E+09,9E+09,9E+09,9E+09]],v50,z1,Extruder_Baugruppe \WObj:=wobjHeizbett;
		MoveL [[149.765,185.554,0.250],[0.00000000,-0.70419257,0.71000903,-0.00000000],[1,0,-1,1],[9E+09,9E+09,9E+09,9E+09,9E+09,9E+09]],v30,z1,Extruder_Baugruppe \WObj:=wobjHeizbett;
		MoveL [[150.481,185.554,0.250],[0.00000000,-0.70419257,0.71000903,-0.00000000],[1,0,-1,1],[9E+09,9E+09,9E+09,9E+09,9E+09,9E+09]],v50,z1,Extruder_Baugruppe \WObj:=wobjHeizbett;
		MoveL [[158.203,177.832,0.250],[0.00000000,-0.70419257,0.71000903,-0.00000000],[1,0,-1,1],[9E+09,9E+09,9E+09,9E+09,9E+09,9E+09]],v30,z1,Extruder_Baugruppe \WObj:=wobjHeizbett;
		MoveL [[158.919,177.832,0.250],[0.00000000,-0.70419257,0.71000903,-0.00000000],[1,0,-1,1],[9E+09,9E+09,9E+09,9E+09,9E+09,9E+09]],v50,z1,Extruder_Baugruppe \WObj:=wobjHeizbett;
		MoveL [[151.197,185.554,0.250],[0.00000000,-0.70419257,0.71000903,-0.00000000],[1,0,-1,1],[9E+09,9E+09,9E+09,9E+09,9E+09,9E+09]],v30,z1,Extruder_Baugruppe \WObj:=wobjHeizbett;
		MoveL [[151.913,185.554,0.250],[0.00000000,-0.70419257,0.71000903,-0.00000000],[1,0,-1,1],[9E+09,9E+09,9E+09,9E+09,9E+09,9E+09]],v50,z1,Extruder_Baugruppe \WObj:=wobjHeizbett;
		MoveL [[159.635,177.832,0.250],[0.00000000,-0.70419257,0.71000903,-0.00000000],[1,0,-1,1],[9E+09,9E+09,9E+09,9E+09,9E+09,9E+09]],v30,z1,Extruder_Baugruppe \WObj:=wobjHeizbett;
		MoveL [[160.351,177.832,0.250],[0.00000000,-0.70419257,0.71000903,0.00000000],[1,0,-1,1],[9E+09,9E+09,9E+09,9E+09,9E+09,9E+09]],v50,z1,Extruder_Baugruppe \WObj:=wobjHeizbett;
		MoveL [[152.629,185.554,0.250],[0.00000000,-0.70419257,0.71000903,-0.00000000],[1,0,-1,1],[9E+09,9E+09,9E+09,9E+09,9E+09,9E+09]],v30,z1,Extruder_Baugruppe \WObj:=wobjHeizbett;
		MoveL [[153.345,185.554,0.250],[0.00000000,-0.70419257,0.71000903,-0.00000000],[1,0,-1,1],[9E+09,9E+09,9E+09,9E+09,9E+09,9E+09]],v50,z1,Extruder_Baugruppe \WObj:=wobjHeizbett;
		MoveL [[161.067,177.832,0.250],[0.00000000,-0.70419257,0.71000903,-0.00000000],[1,0,-1,1],[9E+09,9E+09,9E+09,9E+09,9E+09,9E+09]],v30,z1,Extruder_Baugruppe \WObj:=wobjHeizbett;
		MoveL [[161.783,177.832,0.250],[0.00000000,-0.70419257,0.71000903,0.00000000],[1,0,-1,1],[9E+09,9E+09,9E+09,9E+09,9E+09,9E+09]],v50,z1,Extruder_Baugruppe \WObj:=wobjHeizbett;
		MoveL [[154.062,185.554,0.250],[0.00000000,-0.70419257,0.71000903,0.00000000],[1,0,-1,1],[9E+09,9E+09,9E+09,9E+09,9E+09,9E+09]],v30,z1,Extruder_Baugruppe \WObj:=wobjHeizbett;
		MoveL [[154.778,185.553,0.250],[0.00000000,-0.70419257,0.71000903,-0.00000000],[1,0,-1,1],[9E+09,9E+09,9E+09,9E+09,9E+09,9E+09]],v50,z1,Extruder_Baugruppe \WObj:=wobjHeizbett;
		MoveL [[162.499,177.832,0.250],[0.00000000,-0.70419257,0.71000903,0.00000000],[1,0,-1,1],[9E+09,9E+09,9E+09,9E+09,9E+09,9E+09]],v30,z1,Extruder_Baugruppe \WObj:=wobjHeizbett;
		MoveL [[163.215,177.832,0.250],[0.00000000,-0.70419257,0.71000903,0.00000000],[1,0,-1,1],[9E+09,9E+09,9E+09,9E+09,9E+09,9E+09]],v50,z1,Extruder_Baugruppe \WObj:=wobjHeizbett;
		MoveL [[155.494,185.554,0.250],[0.00000000,-0.70419257,0.71000903,0.00000000],[1,0,-1,1],[9E+09,9E+09,9E+09,9E+09,9E+09,9E+09]],v30,z1,Extruder_Baugruppe \WObj:=wobjHeizbett;
		MoveL [[156.210,185.554,0.250],[0.00000000,-0.70419257,0.71000903,0.00000000],[1,0,-1,1],[9E+09,9E+09,9E+09,9E+09,9E+09,9E+09]],v50,z1,Extruder_Baugruppe \WObj:=wobjHeizbett;
		MoveL [[163.931,177.832,0.250],[0.00000000,-0.70419257,0.71000903,-0.00000000],[1,0,-1,1],[9E+09,9E+09,9E+09,9E+09,9E+09,9E+09]],v30,z1,Extruder_Baugruppe \WObj:=wobjHeizbett;
		MoveL [[164.647,177.832,0.250],[0.00000000,-0.70419257,0.71000903,-0.00000000],[1,0,-1,1],[9E+09,9E+09,9E+09,9E+09,9E+09,9E+09]],v50,z1,Extruder_Baugruppe \WObj:=wobjHeizbett;
		MoveL [[156.926,185.554,0.250],[0.00000000,-0.70419257,0.71000903,-0.00000000],[1,0,-1,1],[9E+09,9E+09,9E+09,9E+09,9E+09,9E+09]],v30,z1,Extruder_Baugruppe \WObj:=wobjHeizbett;
		MoveL [[157.642,185.554,0.250],[0.00000000,-0.70419257,0.71000903,-0.00000000],[1,0,-1,1],[9E+09,9E+09,9E+09,9E+09,9E+09,9E+09]],v50,z1,Extruder_Baugruppe \WObj:=wobjHeizbett;
		MoveL [[165.364,177.832,0.250],[0.00000000,-0.70419257,0.71000903,0.00000000],[1,0,-1,1],[9E+09,9E+09,9E+09,9E+09,9E+09,9E+09]],v30,z1,Extruder_Baugruppe \WObj:=wobjHeizbett;
		MoveL [[166.080,177.832,0.250],[0.00000000,-0.70419257,0.71000903,0.00000000],[1,0,-1,1],[9E+09,9E+09,9E+09,9E+09,9E+09,9E+09]],v50,z1,Extruder_Baugruppe \WObj:=wobjHeizbett;
		MoveL [[158.358,185.554,0.250],[0.00000000,-0.70419257,0.71000903,0.00000000],[1,0,-1,1],[9E+09,9E+09,9E+09,9E+09,9E+09,9E+09]],v30,z1,Extruder_Baugruppe \WObj:=wobjHeizbett;
		MoveL [[159.074,185.554,0.250],[0.00000000,-0.70419257,0.71000903,-0.00000000],[1,0,-1,1],[9E+09,9E+09,9E+09,9E+09,9E+09,9E+09]],v50,z1,Extruder_Baugruppe \WObj:=wobjHeizbett;
		MoveL [[166.796,177.832,0.250],[0.00000000,-0.70419257,0.71000903,-0.00000000],[1,0,-1,1],[9E+09,9E+09,9E+09,9E+09,9E+09,9E+09]],v30,z1,Extruder_Baugruppe \WObj:=wobjHeizbett;
		MoveL [[167.512,177.832,0.250],[0.00000000,-0.70419257,0.71000903,-0.00000000],[1,0,-1,1],[9E+09,9E+09,9E+09,9E+09,9E+09,9E+09]],v50,z1,Extruder_Baugruppe \WObj:=wobjHeizbett;
		MoveL [[159.790,185.553,0.250],[0.00000000,-0.70419257,0.71000903,-0.00000000],[1,0,-1,1],[9E+09,9E+09,9E+09,9E+09,9E+09,9E+09]],v30,z1,Extruder_Baugruppe \WObj:=wobjHeizbett;
		MoveL [[160.506,185.553,0.250],[0.00000000,-0.70419257,0.71000903,-0.00000000],[1,0,-1,1],[9E+09,9E+09,9E+09,9E+09,9E+09,9E+09]],v50,z1,Extruder_Baugruppe \WObj:=wobjHeizbett;
		MoveL [[168.228,177.832,0.250],[0.00000000,-0.70419257,0.71000903,0.00000000],[1,0,-1,1],[9E+09,9E+09,9E+09,9E+09,9E+09,9E+09]],v30,z1,Extruder_Baugruppe \WObj:=wobjHeizbett;
		MoveL [[168.944,177.832,0.250],[0.00000000,-0.70419257,0.71000903,-0.00000000],[1,0,-1,1],[9E+09,9E+09,9E+09,9E+09,9E+09,9E+09]],v50,z1,Extruder_Baugruppe \WObj:=wobjHeizbett;
		MoveL [[161.223,185.553,0.250],[0.00000000,-0.70419257,0.71000903,-0.00000000],[1,0,-1,1],[9E+09,9E+09,9E+09,9E+09,9E+09,9E+09]],v30,z1,Extruder_Baugruppe \WObj:=wobjHeizbett;
		MoveL [[161.938,185.554,0.250],[0.00000000,-0.70419257,0.71000903,0.00000000],[1,0,-1,1],[9E+09,9E+09,9E+09,9E+09,9E+09,9E+09]],v50,z1,Extruder_Baugruppe \WObj:=wobjHeizbett;
		MoveL [[169.660,177.832,0.250],[0.00000000,-0.70419257,0.71000903,-0.00000000],[1,0,-1,1],[9E+09,9E+09,9E+09,9E+09,9E+09,9E+09]],v30,z1,Extruder_Baugruppe \WObj:=wobjHeizbett;
		MoveL [[170.376,177.832,0.250],[0.00000000,-0.70419257,0.71000903,0.00000000],[1,0,-1,1],[9E+09,9E+09,9E+09,9E+09,9E+09,9E+09]],v50,z1,Extruder_Baugruppe \WObj:=wobjHeizbett;
		MoveL [[162.655,185.554,0.250],[0.00000000,-0.70419257,0.71000903,0.00000000],[1,0,-1,1],[9E+09,9E+09,9E+09,9E+09,9E+09,9E+09]],v30,z1,Extruder_Baugruppe \WObj:=wobjHeizbett;
		MoveL [[163.371,185.554,0.250],[0.00000000,-0.70419257,0.71000903,-0.00000000],[1,0,-1,1],[9E+09,9E+09,9E+09,9E+09,9E+09,9E+09]],v50,z1,Extruder_Baugruppe \WObj:=wobjHeizbett;
		MoveL [[171.092,177.832,0.250],[0.00000000,-0.70419257,0.71000903,-0.00000000],[1,0,-1,1],[9E+09,9E+09,9E+09,9E+09,9E+09,9E+09]],v30,z1,Extruder_Baugruppe \WObj:=wobjHeizbett;
		MoveL [[171.808,177.832,0.250],[0.00000000,-0.70419257,0.71000903,0.00000000],[1,0,-1,1],[9E+09,9E+09,9E+09,9E+09,9E+09,9E+09]],v50,z1,Extruder_Baugruppe \WObj:=wobjHeizbett;
		MoveL [[164.087,185.554,0.250],[0.00000000,-0.70419257,0.71000903,0.00000000],[1,0,-1,1],[9E+09,9E+09,9E+09,9E+09,9E+09,9E+09]],v30,z1,Extruder_Baugruppe \WObj:=wobjHeizbett;
		MoveL [[164.803,185.554,0.250],[0.00000000,-0.70419257,0.71000903,-0.00000000],[1,0,-1,1],[9E+09,9E+09,9E+09,9E+09,9E+09,9E+09]],v50,z1,Extruder_Baugruppe \WObj:=wobjHeizbett;
		MoveL [[172.524,177.832,0.250],[0.00000000,-0.70419257,0.71000903,-0.00000000],[1,0,-1,1],[9E+09,9E+09,9E+09,9E+09,9E+09,9E+09]],v30,z1,Extruder_Baugruppe \WObj:=wobjHeizbett;
		MoveL [[173.241,177.832,0.250],[0.00000000,-0.70419257,0.71000903,-0.00000000],[1,0,-1,1],[9E+09,9E+09,9E+09,9E+09,9E+09,9E+09]],v50,z1,Extruder_Baugruppe \WObj:=wobjHeizbett;
		MoveL [[165.519,185.554,0.250],[0.00000000,-0.70419257,0.71000903,-0.00000000],[1,0,-1,1],[9E+09,9E+09,9E+09,9E+09,9E+09,9E+09]],v30,z1,Extruder_Baugruppe \WObj:=wobjHeizbett;
		MoveL [[166.235,185.553,0.250],[0.00000000,-0.70419257,0.71000903,0.00000000],[1,0,-1,1],[9E+09,9E+09,9E+09,9E+09,9E+09,9E+09]],v50,z1,Extruder_Baugruppe \WObj:=wobjHeizbett;
		MoveL [[173.957,177.832,0.250],[0.00000000,-0.70419257,0.71000903,-0.00000000],[1,0,-1,1],[9E+09,9E+09,9E+09,9E+09,9E+09,9E+09]],v30,z1,Extruder_Baugruppe \WObj:=wobjHeizbett;
		MoveL [[174.673,177.832,0.250],[0.00000000,-0.70419257,0.71000903,-0.00000000],[1,0,-1,1],[9E+09,9E+09,9E+09,9E+09,9E+09,9E+09]],v50,z1,Extruder_Baugruppe \WObj:=wobjHeizbett;
		MoveL [[166.951,185.553,0.250],[0.00000000,-0.70419257,0.71000903,-0.00000000],[1,0,-1,1],[9E+09,9E+09,9E+09,9E+09,9E+09,9E+09]],v30,z1,Extruder_Baugruppe \WObj:=wobjHeizbett;
		MoveL [[167.667,185.553,0.250],[0.00000000,-0.70419257,0.71000903,-0.00000000],[1,0,-1,1],[9E+09,9E+09,9E+09,9E+09,9E+09,9E+09]],v50,z1,Extruder_Baugruppe \WObj:=wobjHeizbett;
		MoveL [[175.389,177.832,0.250],[0.00000000,-0.70419257,0.71000903,0.00000000],[1,0,-1,1],[9E+09,9E+09,9E+09,9E+09,9E+09,9E+09]],v30,z1,Extruder_Baugruppe \WObj:=wobjHeizbett;
		MoveL [[176.105,177.832,0.250],[0.00000000,-0.70419257,0.71000903,-0.00000000],[1,0,-1,1],[9E+09,9E+09,9E+09,9E+09,9E+09,9E+09]],v50,z1,Extruder_Baugruppe \WObj:=wobjHeizbett;
		MoveL [[168.383,185.554,0.250],[0.00000000,-0.70419257,0.71000903,-0.00000000],[1,0,-1,1],[9E+09,9E+09,9E+09,9E+09,9E+09,9E+09]],v30,z1,Extruder_Baugruppe \WObj:=wobjHeizbett;
		MoveL [[169.099,185.553,0.250],[0.00000000,-0.70419257,0.71000903,-0.00000000],[1,0,-1,1],[9E+09,9E+09,9E+09,9E+09,9E+09,9E+09]],v50,z1,Extruder_Baugruppe \WObj:=wobjHeizbett;
		MoveL [[176.821,177.832,0.250],[0.00000000,-0.70419257,0.71000903,0.00000000],[1,0,-1,1],[9E+09,9E+09,9E+09,9E+09,9E+09,9E+09]],v30,z1,Extruder_Baugruppe \WObj:=wobjHeizbett;
		MoveL [[177.537,177.832,0.250],[0.00000000,-0.70419257,0.71000903,-0.00000000],[1,0,-1,1],[9E+09,9E+09,9E+09,9E+09,9E+09,9E+09]],v50,z1,Extruder_Baugruppe \WObj:=wobjHeizbett;
		MoveL [[169.816,185.554,0.250],[0.00000000,-0.70419257,0.71000903,-0.00000000],[1,0,-1,1],[9E+09,9E+09,9E+09,9E+09,9E+09,9E+09]],v30,z1,Extruder_Baugruppe \WObj:=wobjHeizbett;
		MoveL [[170.532,185.554,0.250],[0.00000000,-0.70419257,0.71000903,-0.00000000],[1,0,-1,1],[9E+09,9E+09,9E+09,9E+09,9E+09,9E+09]],v50,z1,Extruder_Baugruppe \WObj:=wobjHeizbett;
		MoveL [[178.253,177.832,0.250],[0.00000000,-0.70419257,0.71000903,-0.00000000],[1,0,-1,1],[9E+09,9E+09,9E+09,9E+09,9E+09,9E+09]],v30,z1,Extruder_Baugruppe \WObj:=wobjHeizbett;
		MoveL [[178.969,177.832,0.250],[0.00000000,-0.70419257,0.71000903,-0.00000000],[1,0,-1,1],[9E+09,9E+09,9E+09,9E+09,9E+09,9E+09]],v50,z1,Extruder_Baugruppe \WObj:=wobjHeizbett;
		MoveL [[171.248,185.554,0.250],[0.00000000,-0.70419257,0.71000903,-0.00000000],[1,0,-1,1],[9E+09,9E+09,9E+09,9E+09,9E+09,9E+09]],v30,z1,Extruder_Baugruppe \WObj:=wobjHeizbett;
		MoveL [[171.964,185.554,0.250],[0.00000000,-0.70419257,0.71000903,0.00000000],[1,0,-1,1],[9E+09,9E+09,9E+09,9E+09,9E+09,9E+09]],v50,z1,Extruder_Baugruppe \WObj:=wobjHeizbett;
		MoveL [[179.685,177.832,0.250],[0.00000000,-0.70419257,0.71000903,0.00000000],[1,0,-1,1],[9E+09,9E+09,9E+09,9E+09,9E+09,9E+09]],v30,z1,Extruder_Baugruppe \WObj:=wobjHeizbett;
		MoveL [[180.004,178.230,0.250],[0.00000000,-0.70419257,0.71000903,-0.00000000],[1,0,-1,1],[9E+09,9E+09,9E+09,9E+09,9E+09,9E+09]],v50,z1,Extruder_Baugruppe \WObj:=wobjHeizbett;
		MoveL [[172.680,185.554,0.250],[0.00000000,-0.70419257,0.71000903,-0.00000000],[1,0,-1,1],[9E+09,9E+09,9E+09,9E+09,9E+09,9E+09]],v30,z1,Extruder_Baugruppe \WObj:=wobjHeizbett;
		MoveL [[173.396,185.554,0.250],[0.00000000,-0.70419257,0.71000903,-0.00000000],[1,0,-1,1],[9E+09,9E+09,9E+09,9E+09,9E+09,9E+09]],v50,z1,Extruder_Baugruppe \WObj:=wobjHeizbett;
		MoveL [[180.004,178.946,0.250],[0.00000000,-0.70419257,0.71000903,-0.00000000],[1,0,-1,1],[9E+09,9E+09,9E+09,9E+09,9E+09,9E+09]],v30,z1,Extruder_Baugruppe \WObj:=wobjHeizbett;
		MoveL [[180.004,179.662,0.250],[0.00000000,-0.70419257,0.71000903,-0.00000000],[1,0,-1,1],[9E+09,9E+09,9E+09,9E+09,9E+09,9E+09]],v50,z1,Extruder_Baugruppe \WObj:=wobjHeizbett;
		MoveL [[174.112,185.554,0.250],[0.00000000,-0.70419257,0.71000903,-0.00000000],[1,0,-1,1],[9E+09,9E+09,9E+09,9E+09,9E+09,9E+09]],v30,z1,Extruder_Baugruppe \WObj:=wobjHeizbett;
		MoveL [[174.828,185.554,0.250],[0.00000000,-0.70419257,0.71000903,-0.00000000],[1,0,-1,1],[9E+09,9E+09,9E+09,9E+09,9E+09,9E+09]],v50,z1,Extruder_Baugruppe \WObj:=wobjHeizbett;
		MoveL [[180.004,180.378,0.250],[0.00000000,-0.70419257,0.71000903,-0.00000000],[1,0,-1,1],[9E+09,9E+09,9E+09,9E+09,9E+09,9E+09]],v30,z1,Extruder_Baugruppe \WObj:=wobjHeizbett;
		MoveL [[180.004,181.094,0.250],[0.00000000,-0.70419257,0.71000903,-0.00000000],[1,0,-1,1],[9E+09,9E+09,9E+09,9E+09,9E+09,9E+09]],v50,z1,Extruder_Baugruppe \WObj:=wobjHeizbett;
		MoveL [[175.544,185.554,0.250],[0.00000000,-0.70419257,0.71000903,0.00000000],[1,0,-1,1],[9E+09,9E+09,9E+09,9E+09,9E+09,9E+09]],v30,z1,Extruder_Baugruppe \WObj:=wobjHeizbett;
		MoveL [[176.260,185.553,0.250],[0.00000000,-0.70419257,0.71000903,-0.00000000],[1,0,-1,1],[9E+09,9E+09,9E+09,9E+09,9E+09,9E+09]],v50,z1,Extruder_Baugruppe \WObj:=wobjHeizbett;
		MoveL [[180.004,181.810,0.250],[0.00000000,-0.70419257,0.71000903,-0.00000000],[1,0,-1,1],[9E+09,9E+09,9E+09,9E+09,9E+09,9E+09]],v30,z1,Extruder_Baugruppe \WObj:=wobjHeizbett;
		MoveL [[180.004,182.526,0.250],[0.00000000,-0.70419257,0.71000903,-0.00000000],[1,0,-1,1],[9E+09,9E+09,9E+09,9E+09,9E+09,9E+09]],v50,z1,Extruder_Baugruppe \WObj:=wobjHeizbett;
		MoveL [[176.976,185.554,0.250],[0.00000000,-0.70419257,0.71000903,-0.00000000],[1,0,-1,1],[9E+09,9E+09,9E+09,9E+09,9E+09,9E+09]],v30,z1,Extruder_Baugruppe \WObj:=wobjHeizbett;
		MoveL [[177.692,185.554,0.250],[0.00000000,-0.70419257,0.71000903,-0.00000000],[1,0,-1,1],[9E+09,9E+09,9E+09,9E+09,9E+09,9E+09]],v50,z1,Extruder_Baugruppe \WObj:=wobjHeizbett;
		MoveL [[180.004,183.242,0.250],[0.00000000,-0.70419257,0.71000903,-0.00000000],[1,0,-1,1],[9E+09,9E+09,9E+09,9E+09,9E+09,9E+09]],v30,z1,Extruder_Baugruppe \WObj:=wobjHeizbett;
		MoveL [[180.004,183.958,0.250],[0.00000000,-0.70419257,0.71000903,0.00000000],[1,0,-1,1],[9E+09,9E+09,9E+09,9E+09,9E+09,9E+09]],v50,z1,Extruder_Baugruppe \WObj:=wobjHeizbett;
		MoveL [[178.409,185.554,0.250],[0.00000000,-0.70419257,0.71000903,-0.00000000],[1,0,-1,1],[9E+09,9E+09,9E+09,9E+09,9E+09,9E+09]],v30,z1,Extruder_Baugruppe \WObj:=wobjHeizbett;
		MoveL [[179.125,185.554,0.250],[0.00000000,-0.70419257,0.71000903,0.00000000],[1,0,-1,1],[9E+09,9E+09,9E+09,9E+09,9E+09,9E+09]],v50,z1,Extruder_Baugruppe \WObj:=wobjHeizbett;
		MoveL [[180.004,184.674,0.250],[0.00000000,-0.70419257,0.71000903,0.00000000],[1,0,-1,1],[9E+09,9E+09,9E+09,9E+09,9E+09,9E+09]],v30,z1,Extruder_Baugruppe \WObj:=wobjHeizbett;
		MoveL [[180.004,185.390,0.250],[0.00000000,-0.70419257,0.71000903,0.00000000],[1,0,-1,1],[9E+09,9E+09,9E+09,9E+09,9E+09,9E+09]],v50,z1,Extruder_Baugruppe \WObj:=wobjHeizbett;
		MoveL [[179.841,185.554,0.250],[0.00000000,-0.70419257,0.71000903,-0.00000000],[1,0,-1,1],[9E+09,9E+09,9E+09,9E+09,9E+09,9E+09]],v30,z1,Extruder_Baugruppe \WObj:=wobjHeizbett;
		MoveL [[179.841,185.554,0.350],[0.00000000,-0.70419257,0.71000903,-0.00000000],[1,0,-1,1],[9E+09,9E+09,9E+09,9E+09,9E+09,9E+09]],v50,z1,Extruder_Baugruppe \WObj:=wobjHeizbett;
		MoveL [[122.238,134.899,0.350],[0.00000000,-0.70419257,0.71000903,-0.00000000],[1,0,-1,1],[9E+09,9E+09,9E+09,9E+09,9E+09,9E+09]],v1000,z1,Extruder_Baugruppe \WObj:=wobjHeizbett;
		MoveL [[122.238,134.899,0.250],[0.00000000,-0.70419257,0.71000903,0.00000000],[1,0,-1,1],[9E+09,9E+09,9E+09,9E+09,9E+09,9E+09]],v50,z1,Extruder_Baugruppe \WObj:=wobjHeizbett;
		M_RunCode 117;
		ExtruderSpeed 3.000;
		MoveL [[141.559,154.220,0.250],[0.00000000,-0.70419257,0.71000903,0.00000000],[1,0,-1,1],[9E+09,9E+09,9E+09,9E+09,9E+09,9E+09]],v30,z1,Extruder_Baugruppe \WObj:=wobjHeizbett;
		ExtruderSpeed 0.000;
		MoveL [[122.238,173.541,0.250],[0.00000000,-0.70419257,0.71000903,-0.00000000],[1,0,-1,1],[9E+09,9E+09,9E+09,9E+09,9E+09,9E+09]],v30,z1,Extruder_Baugruppe \WObj:=wobjHeizbett;
		MoveL [[122.238,173.541,0.350],[0.00000000,-0.70419257,0.71000903,-0.00000000],[1,0,-1,1],[9E+09,9E+09,9E+09,9E+09,9E+09,9E+09]],v50,z1,Extruder_Baugruppe \WObj:=wobjHeizbett;
		MoveL [[122.814,134.899,0.350],[0.00000000,-0.70419257,0.71000903,0.00000000],[1,0,-1,1],[9E+09,9E+09,9E+09,9E+09,9E+09,9E+09]],v1000,z1,Extruder_Baugruppe \WObj:=wobjHeizbett;
		MoveL [[122.814,134.899,0.250],[0.00000000,-0.70419257,0.71000903,-0.00000000],[1,0,-1,1],[9E+09,9E+09,9E+09,9E+09,9E+09,9E+09]],v50,z1,Extruder_Baugruppe \WObj:=wobjHeizbett;
		ExtruderSpeed 3.000;
		MoveL [[142.135,154.220,0.250],[0.00000000,-0.70419257,0.71000903,0.00000000],[1,0,-1,1],[9E+09,9E+09,9E+09,9E+09,9E+09,9E+09]],v30,z1,Extruder_Baugruppe \WObj:=wobjHeizbett;
		ExtruderSpeed 0.000;
		MoveL [[122.814,173.541,0.250],[0.00000000,-0.70419257,0.71000903,0.00000000],[1,0,-1,1],[9E+09,9E+09,9E+09,9E+09,9E+09,9E+09]],v30,z1,Extruder_Baugruppe \WObj:=wobjHeizbett;
		MoveL [[122.814,173.541,0.350],[0.00000000,-0.70419257,0.71000903,-0.00000000],[1,0,-1,1],[9E+09,9E+09,9E+09,9E+09,9E+09,9E+09]],v50,z1,Extruder_Baugruppe \WObj:=wobjHeizbett;
		MoveL [[123.390,134.899,0.350],[0.00000000,-0.70419257,0.71000903,-0.00000000],[1,0,-1,1],[9E+09,9E+09,9E+09,9E+09,9E+09,9E+09]],v1000,z1,Extruder_Baugruppe \WObj:=wobjHeizbett;
		MoveL [[123.390,134.899,0.250],[0.00000000,-0.70419257,0.71000903,0.00000000],[1,0,-1,1],[9E+09,9E+09,9E+09,9E+09,9E+09,9E+09]],v50,z1,Extruder_Baugruppe \WObj:=wobjHeizbett;
		ExtruderSpeed 3.000;
		MoveL [[142.711,154.220,0.250],[0.00000000,-0.70419257,0.71000903,-0.00000000],[1,0,-1,1],[9E+09,9E+09,9E+09,9E+09,9E+09,9E+09]],v30,z1,Extruder_Baugruppe \WObj:=wobjHeizbett;
		ExtruderSpeed 0.000;
		MoveL [[123.390,173.541,0.250],[0.00000000,-0.70419257,0.71000903,-0.00000000],[1,0,-1,1],[9E+09,9E+09,9E+09,9E+09,9E+09,9E+09]],v30,z1,Extruder_Baugruppe \WObj:=wobjHeizbett;
		MoveL [[123.390,173.541,0.350],[0.00000000,-0.70419257,0.71000903,-0.00000000],[1,0,-1,1],[9E+09,9E+09,9E+09,9E+09,9E+09,9E+09]],v50,z1,Extruder_Baugruppe \WObj:=wobjHeizbett;
		MoveL [[125.840,134.899,0.350],[0.00000000,-0.70419257,0.71000903,0.00000000],[1,0,-1,1],[9E+09,9E+09,9E+09,9E+09,9E+09,9E+09]],v1000,z1,Extruder_Baugruppe \WObj:=wobjHeizbett;
		MoveL [[125.840,134.899,0.250],[0.00000000,-0.70419257,0.71000903,-0.00000000],[1,0,-1,1],[9E+09,9E+09,9E+09,9E+09,9E+09,9E+09]],v50,z1,Extruder_Baugruppe \WObj:=wobjHeizbett;
		M_RunCode 117;
		ExtruderSpeed 3.000;
		MoveL [[145.161,154.220,0.250],[0.00000000,-0.70419257,0.71000903,-0.00000000],[1,0,-1,1],[9E+09,9E+09,9E+09,9E+09,9E+09,9E+09]],v30,z1,Extruder_Baugruppe \WObj:=wobjHeizbett;
		ExtruderSpeed 0.000;
		MoveL [[125.840,173.541,0.250],[0.00000000,-0.70419257,0.71000903,0.00000000],[1,0,-1,1],[9E+09,9E+09,9E+09,9E+09,9E+09,9E+09]],v30,z1,Extruder_Baugruppe \WObj:=wobjHeizbett;
		MoveL [[125.840,173.541,0.350],[0.00000000,-0.70419257,0.71000903,-0.00000000],[1,0,-1,1],[9E+09,9E+09,9E+09,9E+09,9E+09,9E+09]],v50,z1,Extruder_Baugruppe \WObj:=wobjHeizbett;
		MoveL [[126.415,134.899,0.350],[0.00000000,-0.70419257,0.71000903,0.00000000],[1,0,-1,1],[9E+09,9E+09,9E+09,9E+09,9E+09,9E+09]],v1000,z1,Extruder_Baugruppe \WObj:=wobjHeizbett;
		MoveL [[126.416,134.899,0.250],[0.00000000,-0.70419257,0.71000903,-0.00000000],[1,0,-1,1],[9E+09,9E+09,9E+09,9E+09,9E+09,9E+09]],v50,z1,Extruder_Baugruppe \WObj:=wobjHeizbett;
		ExtruderSpeed 3.000;
		MoveL [[145.736,154.220,0.250],[0.00000000,-0.70419257,0.71000903,-0.00000000],[1,0,-1,1],[9E+09,9E+09,9E+09,9E+09,9E+09,9E+09]],v30,z1,Extruder_Baugruppe \WObj:=wobjHeizbett;
		ExtruderSpeed 0.000;
		MoveL [[126.415,173.541,0.250],[0.00000000,-0.70419257,0.71000903,-0.00000000],[1,0,-1,1],[9E+09,9E+09,9E+09,9E+09,9E+09,9E+09]],v30,z1,Extruder_Baugruppe \WObj:=wobjHeizbett;
		MoveL [[126.415,173.541,0.350],[0.00000000,-0.70419257,0.71000903,-0.00000000],[1,0,-1,1],[9E+09,9E+09,9E+09,9E+09,9E+09,9E+09]],v50,z1,Extruder_Baugruppe \WObj:=wobjHeizbett;
		MoveL [[126.991,134.899,0.350],[0.00000000,-0.70419257,0.71000903,0.00000000],[1,0,-1,1],[9E+09,9E+09,9E+09,9E+09,9E+09,9E+09]],v1000,z1,Extruder_Baugruppe \WObj:=wobjHeizbett;
		MoveL [[126.991,134.899,0.250],[0.00000000,-0.70419257,0.71000903,0.00000000],[1,0,-1,1],[9E+09,9E+09,9E+09,9E+09,9E+09,9E+09]],v50,z1,Extruder_Baugruppe \WObj:=wobjHeizbett;
		ExtruderSpeed 3.000;
		MoveL [[146.312,154.220,0.250],[0.00000000,-0.70419257,0.71000903,-0.00000000],[1,0,-1,1],[9E+09,9E+09,9E+09,9E+09,9E+09,9E+09]],v30,z1,Extruder_Baugruppe \WObj:=wobjHeizbett;
		ExtruderSpeed 0.000;
		MoveL [[126.991,173.541,0.250],[0.00000000,-0.70419257,0.71000903,-0.00000000],[1,0,-1,1],[9E+09,9E+09,9E+09,9E+09,9E+09,9E+09]],v30,z1,Extruder_Baugruppe \WObj:=wobjHeizbett;
		MoveL [[126.991,173.541,0.350],[0.00000000,-0.70419257,0.71000903,-0.00000000],[1,0,-1,1],[9E+09,9E+09,9E+09,9E+09,9E+09,9E+09]],v50,z1,Extruder_Baugruppe \WObj:=wobjHeizbett;
		MoveL [[129.441,134.899,0.350],[0.00000000,-0.70419257,0.71000903,-0.00000000],[1,0,-1,1],[9E+09,9E+09,9E+09,9E+09,9E+09,9E+09]],v1000,z1,Extruder_Baugruppe \WObj:=wobjHeizbett;
		MoveL [[129.441,134.899,0.250],[0.00000000,-0.70419257,0.71000903,0.00000000],[1,0,-1,1],[9E+09,9E+09,9E+09,9E+09,9E+09,9E+09]],v50,z1,Extruder_Baugruppe \WObj:=wobjHeizbett;
		M_RunCode 117;
		ExtruderSpeed 3.000;
		MoveL [[148.762,154.220,0.250],[0.00000000,-0.70419257,0.71000903,0.00000000],[1,0,-1,1],[9E+09,9E+09,9E+09,9E+09,9E+09,9E+09]],v30,z1,Extruder_Baugruppe \WObj:=wobjHeizbett;
		ExtruderSpeed 0.000;
		MoveL [[129.441,173.541,0.250],[0.00000000,-0.70419257,0.71000903,-0.00000000],[1,0,-1,1],[9E+09,9E+09,9E+09,9E+09,9E+09,9E+09]],v30,z1,Extruder_Baugruppe \WObj:=wobjHeizbett;
		MoveL [[129.441,173.541,0.350],[0.00000000,-0.70419257,0.71000903,-0.00000000],[1,0,-1,1],[9E+09,9E+09,9E+09,9E+09,9E+09,9E+09]],v50,z1,Extruder_Baugruppe \WObj:=wobjHeizbett;
		MoveL [[130.017,134.899,0.350],[0.00000000,-0.70419257,0.71000903,-0.00000000],[1,0,-1,1],[9E+09,9E+09,9E+09,9E+09,9E+09,9E+09]],v1000,z1,Extruder_Baugruppe \WObj:=wobjHeizbett;
		MoveL [[130.017,134.899,0.250],[0.00000000,-0.70419257,0.71000903,0.00000000],[1,0,-1,1],[9E+09,9E+09,9E+09,9E+09,9E+09,9E+09]],v50,z1,Extruder_Baugruppe \WObj:=wobjHeizbett;
		ExtruderSpeed 3.000;
		MoveL [[149.338,154.220,0.250],[0.00000000,-0.70419257,0.71000903,0.00000000],[1,0,-1,1],[9E+09,9E+09,9E+09,9E+09,9E+09,9E+09]],v30,z1,Extruder_Baugruppe \WObj:=wobjHeizbett;
		ExtruderSpeed 0.000;
		MoveL [[130.017,173.541,0.250],[0.00000000,-0.70419257,0.71000903,-0.00000000],[1,0,-1,1],[9E+09,9E+09,9E+09,9E+09,9E+09,9E+09]],v30,z1,Extruder_Baugruppe \WObj:=wobjHeizbett;
		MoveL [[130.017,173.541,0.350],[0.00000000,-0.70419257,0.71000903,-0.00000000],[1,0,-1,1],[9E+09,9E+09,9E+09,9E+09,9E+09,9E+09]],v50,z1,Extruder_Baugruppe \WObj:=wobjHeizbett;
		MoveL [[130.593,134.899,0.350],[0.00000000,-0.70419257,0.71000903,-0.00000000],[1,0,-1,1],[9E+09,9E+09,9E+09,9E+09,9E+09,9E+09]],v1000,z1,Extruder_Baugruppe \WObj:=wobjHeizbett;
		MoveL [[130.593,134.899,0.250],[0.00000000,-0.70419257,0.71000903,-0.00000000],[1,0,-1,1],[9E+09,9E+09,9E+09,9E+09,9E+09,9E+09]],v50,z1,Extruder_Baugruppe \WObj:=wobjHeizbett;
		ExtruderSpeed 3.000;
		MoveL [[149.913,154.220,0.250],[0.00000000,-0.70419257,0.71000903,0.00000000],[1,0,-1,1],[9E+09,9E+09,9E+09,9E+09,9E+09,9E+09]],v30,z1,Extruder_Baugruppe \WObj:=wobjHeizbett;
		ExtruderSpeed 0.000;
		MoveL [[130.593,173.541,0.250],[0.00000000,-0.70419257,0.71000903,0.00000000],[1,0,-1,1],[9E+09,9E+09,9E+09,9E+09,9E+09,9E+09]],v30,z1,Extruder_Baugruppe \WObj:=wobjHeizbett;
		MoveL [[130.593,173.541,0.350],[0.00000000,-0.70419257,0.71000903,-0.00000000],[1,0,-1,1],[9E+09,9E+09,9E+09,9E+09,9E+09,9E+09]],v50,z1,Extruder_Baugruppe \WObj:=wobjHeizbett;
		MoveL [[133.043,134.899,0.350],[0.00000000,-0.70419257,0.71000903,-0.00000000],[1,0,-1,1],[9E+09,9E+09,9E+09,9E+09,9E+09,9E+09]],v1000,z1,Extruder_Baugruppe \WObj:=wobjHeizbett;
		MoveL [[133.043,134.899,0.250],[0.00000000,-0.70419257,0.71000903,-0.00000000],[1,0,-1,1],[9E+09,9E+09,9E+09,9E+09,9E+09,9E+09]],v50,z1,Extruder_Baugruppe \WObj:=wobjHeizbett;
		M_RunCode 117;
		ExtruderSpeed 3.000;
		MoveL [[152.363,154.220,0.250],[0.00000000,-0.70419257,0.71000903,-0.00000000],[1,0,-1,1],[9E+09,9E+09,9E+09,9E+09,9E+09,9E+09]],v30,z1,Extruder_Baugruppe \WObj:=wobjHeizbett;
		ExtruderSpeed 0.000;
		MoveL [[133.043,173.541,0.250],[0.00000000,-0.70419257,0.71000903,-0.00000000],[1,0,-1,1],[9E+09,9E+09,9E+09,9E+09,9E+09,9E+09]],v30,z1,Extruder_Baugruppe \WObj:=wobjHeizbett;
		MoveL [[133.043,173.541,0.350],[0.00000000,-0.70419257,0.71000903,-0.00000000],[1,0,-1,1],[9E+09,9E+09,9E+09,9E+09,9E+09,9E+09]],v50,z1,Extruder_Baugruppe \WObj:=wobjHeizbett;
		MoveL [[133.618,134.899,0.350],[0.00000000,-0.70419257,0.71000903,-0.00000000],[1,0,-1,1],[9E+09,9E+09,9E+09,9E+09,9E+09,9E+09]],v1000,z1,Extruder_Baugruppe \WObj:=wobjHeizbett;
		MoveL [[133.618,134.899,0.250],[0.00000000,-0.70419257,0.71000903,0.00000000],[1,0,-1,1],[9E+09,9E+09,9E+09,9E+09,9E+09,9E+09]],v50,z1,Extruder_Baugruppe \WObj:=wobjHeizbett;
		ExtruderSpeed 3.000;
		MoveL [[152.939,154.220,0.250],[0.00000000,-0.70419257,0.71000903,-0.00000000],[1,0,-1,1],[9E+09,9E+09,9E+09,9E+09,9E+09,9E+09]],v30,z1,Extruder_Baugruppe \WObj:=wobjHeizbett;
		ExtruderSpeed 0.000;
		MoveL [[133.618,173.541,0.250],[0.00000000,-0.70419257,0.71000903,-0.00000000],[1,0,-1,1],[9E+09,9E+09,9E+09,9E+09,9E+09,9E+09]],v30,z1,Extruder_Baugruppe \WObj:=wobjHeizbett;
		MoveL [[133.618,173.541,0.350],[0.00000000,-0.70419257,0.71000903,-0.00000000],[1,0,-1,1],[9E+09,9E+09,9E+09,9E+09,9E+09,9E+09]],v50,z1,Extruder_Baugruppe \WObj:=wobjHeizbett;
		MoveL [[134.194,134.899,0.350],[0.00000000,-0.70419257,0.71000903,-0.00000000],[1,0,-1,1],[9E+09,9E+09,9E+09,9E+09,9E+09,9E+09]],v1000,z1,Extruder_Baugruppe \WObj:=wobjHeizbett;
		MoveL [[134.194,134.899,0.250],[0.00000000,-0.70419257,0.71000903,-0.00000000],[1,0,-1,1],[9E+09,9E+09,9E+09,9E+09,9E+09,9E+09]],v50,z1,Extruder_Baugruppe \WObj:=wobjHeizbett;
		ExtruderSpeed 3.000;
		MoveL [[153.515,154.220,0.250],[0.00000000,-0.70419257,0.71000903,-0.00000000],[1,0,-1,1],[9E+09,9E+09,9E+09,9E+09,9E+09,9E+09]],v30,z1,Extruder_Baugruppe \WObj:=wobjHeizbett;
		ExtruderSpeed 0.000;
		MoveL [[134.194,173.541,0.250],[0.00000000,-0.70419257,0.71000903,-0.00000000],[1,0,-1,1],[9E+09,9E+09,9E+09,9E+09,9E+09,9E+09]],v30,z1,Extruder_Baugruppe \WObj:=wobjHeizbett;
		MoveL [[134.194,173.541,0.350],[0.00000000,-0.70419257,0.71000903,-0.00000000],[1,0,-1,1],[9E+09,9E+09,9E+09,9E+09,9E+09,9E+09]],v50,z1,Extruder_Baugruppe \WObj:=wobjHeizbett;
		MoveL [[136.644,134.899,0.350],[0.00000000,-0.70419257,0.71000903,-0.00000000],[1,0,-1,1],[9E+09,9E+09,9E+09,9E+09,9E+09,9E+09]],v1000,z1,Extruder_Baugruppe \WObj:=wobjHeizbett;
		MoveL [[136.644,134.899,0.250],[0.00000000,-0.70419257,0.71000903,0.00000000],[1,0,-1,1],[9E+09,9E+09,9E+09,9E+09,9E+09,9E+09]],v50,z1,Extruder_Baugruppe \WObj:=wobjHeizbett;
		M_RunCode 117;
		ExtruderSpeed 3.000;
		MoveL [[155.965,154.220,0.250],[0.00000000,-0.70419257,0.71000903,-0.00000000],[1,0,-1,1],[9E+09,9E+09,9E+09,9E+09,9E+09,9E+09]],v30,z1,Extruder_Baugruppe \WObj:=wobjHeizbett;
		ExtruderSpeed 0.000;
		MoveL [[136.644,173.541,0.250],[0.00000000,-0.70419257,0.71000903,-0.00000000],[1,0,-1,1],[9E+09,9E+09,9E+09,9E+09,9E+09,9E+09]],v30,z1,Extruder_Baugruppe \WObj:=wobjHeizbett;
		MoveL [[136.644,173.541,0.350],[0.00000000,-0.70419257,0.71000903,-0.00000000],[1,0,-1,1],[9E+09,9E+09,9E+09,9E+09,9E+09,9E+09]],v50,z1,Extruder_Baugruppe \WObj:=wobjHeizbett;
		MoveL [[137.220,134.899,0.350],[0.00000000,-0.70419257,0.71000903,-0.00000000],[1,0,-1,1],[9E+09,9E+09,9E+09,9E+09,9E+09,9E+09]],v1000,z1,Extruder_Baugruppe \WObj:=wobjHeizbett;
		MoveL [[137.220,134.899,0.250],[0.00000000,-0.70419257,0.71000903,-0.00000000],[1,0,-1,1],[9E+09,9E+09,9E+09,9E+09,9E+09,9E+09]],v50,z1,Extruder_Baugruppe \WObj:=wobjHeizbett;
		ExtruderSpeed 3.000;
		MoveL [[156.541,154.220,0.250],[0.00000000,-0.70419257,0.71000903,-0.00000000],[1,0,-1,1],[9E+09,9E+09,9E+09,9E+09,9E+09,9E+09]],v30,z1,Extruder_Baugruppe \WObj:=wobjHeizbett;
		ExtruderSpeed 0.000;
		MoveL [[137.220,173.541,0.250],[0.00000000,-0.70419257,0.71000903,0.00000000],[1,0,-1,1],[9E+09,9E+09,9E+09,9E+09,9E+09,9E+09]],v30,z1,Extruder_Baugruppe \WObj:=wobjHeizbett;
		MoveL [[137.220,173.541,0.350],[0.00000000,-0.70419257,0.71000903,-0.00000000],[1,0,-1,1],[9E+09,9E+09,9E+09,9E+09,9E+09,9E+09]],v50,z1,Extruder_Baugruppe \WObj:=wobjHeizbett;
		MoveL [[137.795,134.899,0.350],[0.00000000,-0.70419257,0.71000903,-0.00000000],[1,0,-1,1],[9E+09,9E+09,9E+09,9E+09,9E+09,9E+09]],v1000,z1,Extruder_Baugruppe \WObj:=wobjHeizbett;
		MoveL [[137.795,134.899,0.250],[0.00000000,-0.70419257,0.71000903,-0.00000000],[1,0,-1,1],[9E+09,9E+09,9E+09,9E+09,9E+09,9E+09]],v50,z1,Extruder_Baugruppe \WObj:=wobjHeizbett;
		ExtruderSpeed 3.000;
		MoveL [[157.116,154.220,0.250],[0.00000000,-0.70419257,0.71000903,-0.00000000],[1,0,-1,1],[9E+09,9E+09,9E+09,9E+09,9E+09,9E+09]],v30,z1,Extruder_Baugruppe \WObj:=wobjHeizbett;
		ExtruderSpeed 0.000;
		MoveL [[137.795,173.541,0.250],[0.00000000,-0.70419257,0.71000903,0.00000000],[1,0,-1,1],[9E+09,9E+09,9E+09,9E+09,9E+09,9E+09]],v30,z1,Extruder_Baugruppe \WObj:=wobjHeizbett;
		MoveL [[137.795,173.541,0.350],[0.00000000,-0.70419257,0.71000903,0.00000000],[1,0,-1,1],[9E+09,9E+09,9E+09,9E+09,9E+09,9E+09]],v50,z1,Extruder_Baugruppe \WObj:=wobjHeizbett;
		MoveL [[140.245,134.899,0.350],[0.00000000,-0.70419257,0.71000903,-0.00000000],[1,0,-1,1],[9E+09,9E+09,9E+09,9E+09,9E+09,9E+09]],v1000,z1,Extruder_Baugruppe \WObj:=wobjHeizbett;
		MoveL [[140.245,134.899,0.250],[0.00000000,-0.70419257,0.71000903,-0.00000000],[1,0,-1,1],[9E+09,9E+09,9E+09,9E+09,9E+09,9E+09]],v50,z1,Extruder_Baugruppe \WObj:=wobjHeizbett;
		M_RunCode 117;
		ExtruderSpeed 3.000;
		MoveL [[159.566,154.220,0.250],[0.00000000,-0.70419257,0.71000903,-0.00000000],[1,0,-1,1],[9E+09,9E+09,9E+09,9E+09,9E+09,9E+09]],v30,z1,Extruder_Baugruppe \WObj:=wobjHeizbett;
		ExtruderSpeed 0.000;
		MoveL [[140.245,173.541,0.250],[0.00000000,-0.70419257,0.71000903,0.00000000],[1,0,-1,1],[9E+09,9E+09,9E+09,9E+09,9E+09,9E+09]],v30,z1,Extruder_Baugruppe \WObj:=wobjHeizbett;
		MoveL [[140.245,173.541,0.350],[0.00000000,-0.70419257,0.71000903,-0.00000000],[1,0,-1,1],[9E+09,9E+09,9E+09,9E+09,9E+09,9E+09]],v50,z1,Extruder_Baugruppe \WObj:=wobjHeizbett;
		MoveL [[140.821,134.899,0.350],[0.00000000,-0.70419257,0.71000903,-0.00000000],[1,0,-1,1],[9E+09,9E+09,9E+09,9E+09,9E+09,9E+09]],v1000,z1,Extruder_Baugruppe \WObj:=wobjHeizbett;
		MoveL [[140.821,134.899,0.250],[0.00000000,-0.70419257,0.71000903,-0.00000000],[1,0,-1,1],[9E+09,9E+09,9E+09,9E+09,9E+09,9E+09]],v50,z1,Extruder_Baugruppe \WObj:=wobjHeizbett;
		ExtruderSpeed 3.000;
		MoveL [[160.142,154.220,0.250],[0.00000000,-0.70419257,0.71000903,-0.00000000],[1,0,-1,1],[9E+09,9E+09,9E+09,9E+09,9E+09,9E+09]],v30,z1,Extruder_Baugruppe \WObj:=wobjHeizbett;
		ExtruderSpeed 0.000;
		MoveL [[140.821,173.541,0.250],[0.00000000,-0.70419257,0.71000903,0.00000000],[1,0,-1,1],[9E+09,9E+09,9E+09,9E+09,9E+09,9E+09]],v30,z1,Extruder_Baugruppe \WObj:=wobjHeizbett;
		MoveL [[140.821,173.541,0.350],[0.00000000,-0.70419257,0.71000903,-0.00000000],[1,0,-1,1],[9E+09,9E+09,9E+09,9E+09,9E+09,9E+09]],v50,z1,Extruder_Baugruppe \WObj:=wobjHeizbett;
		MoveL [[141.397,134.899,0.350],[0.00000000,-0.70419257,0.71000903,0.00000000],[1,0,-1,1],[9E+09,9E+09,9E+09,9E+09,9E+09,9E+09]],v1000,z1,Extruder_Baugruppe \WObj:=wobjHeizbett;
		MoveL [[141.397,134.899,0.250],[0.00000000,-0.70419257,0.71000903,-0.00000000],[1,0,-1,1],[9E+09,9E+09,9E+09,9E+09,9E+09,9E+09]],v50,z1,Extruder_Baugruppe \WObj:=wobjHeizbett;
		ExtruderSpeed 3.000;
		MoveL [[160.718,154.220,0.250],[0.00000000,-0.70419257,0.71000903,-0.00000000],[1,0,-1,1],[9E+09,9E+09,9E+09,9E+09,9E+09,9E+09]],v30,z1,Extruder_Baugruppe \WObj:=wobjHeizbett;
		ExtruderSpeed 0.000;
		MoveL [[141.397,173.541,0.250],[0.00000000,-0.70419257,0.71000903,-0.00000000],[1,0,-1,1],[9E+09,9E+09,9E+09,9E+09,9E+09,9E+09]],v30,z1,Extruder_Baugruppe \WObj:=wobjHeizbett;
		MoveL [[141.397,173.541,0.350],[0.00000000,-0.70419257,0.71000903,0.00000000],[1,0,-1,1],[9E+09,9E+09,9E+09,9E+09,9E+09,9E+09]],v50,z1,Extruder_Baugruppe \WObj:=wobjHeizbett;
		MoveL [[143.847,134.899,0.350],[0.00000000,-0.70419257,0.71000903,-0.00000000],[1,0,-1,1],[9E+09,9E+09,9E+09,9E+09,9E+09,9E+09]],v1000,z1,Extruder_Baugruppe \WObj:=wobjHeizbett;
		MoveL [[143.847,134.899,0.250],[0.00000000,-0.70419257,0.71000903,-0.00000000],[1,0,-1,1],[9E+09,9E+09,9E+09,9E+09,9E+09,9E+09]],v50,z1,Extruder_Baugruppe \WObj:=wobjHeizbett;
		M_RunCode 117;
		ExtruderSpeed 3.000;
		MoveL [[163.168,154.220,0.250],[0.00000000,-0.70419257,0.71000903,-0.00000000],[1,0,-1,1],[9E+09,9E+09,9E+09,9E+09,9E+09,9E+09]],v30,z1,Extruder_Baugruppe \WObj:=wobjHeizbett;
		ExtruderSpeed 0.000;
		MoveL [[143.847,173.541,0.250],[0.00000000,-0.70419257,0.71000903,-0.00000000],[1,0,-1,1],[9E+09,9E+09,9E+09,9E+09,9E+09,9E+09]],v30,z1,Extruder_Baugruppe \WObj:=wobjHeizbett;
		MoveL [[143.847,173.541,0.350],[0.00000000,-0.70419257,0.71000903,-0.00000000],[1,0,-1,1],[9E+09,9E+09,9E+09,9E+09,9E+09,9E+09]],v50,z1,Extruder_Baugruppe \WObj:=wobjHeizbett;
		MoveL [[144.422,134.899,0.350],[0.00000000,-0.70419257,0.71000903,-0.00000000],[1,0,-1,1],[9E+09,9E+09,9E+09,9E+09,9E+09,9E+09]],v1000,z1,Extruder_Baugruppe \WObj:=wobjHeizbett;
		MoveL [[144.423,134.899,0.250],[0.00000000,-0.70419257,0.71000903,-0.00000000],[1,0,-1,1],[9E+09,9E+09,9E+09,9E+09,9E+09,9E+09]],v50,z1,Extruder_Baugruppe \WObj:=wobjHeizbett;
		ExtruderSpeed 3.000;
		MoveL [[163.743,154.220,0.250],[0.00000000,-0.70419257,0.71000903,-0.00000000],[1,0,-1,1],[9E+09,9E+09,9E+09,9E+09,9E+09,9E+09]],v30,z1,Extruder_Baugruppe \WObj:=wobjHeizbett;
		ExtruderSpeed 0.000;
		MoveL [[144.422,173.541,0.250],[0.00000000,-0.70419257,0.71000903,0.00000000],[1,0,-1,1],[9E+09,9E+09,9E+09,9E+09,9E+09,9E+09]],v30,z1,Extruder_Baugruppe \WObj:=wobjHeizbett;
		MoveL [[144.423,173.541,0.350],[0.00000000,-0.70419257,0.71000903,-0.00000000],[1,0,-1,1],[9E+09,9E+09,9E+09,9E+09,9E+09,9E+09]],v50,z1,Extruder_Baugruppe \WObj:=wobjHeizbett;
		MoveL [[144.998,134.899,0.350],[0.00000000,-0.70419257,0.71000903,-0.00000000],[1,0,-1,1],[9E+09,9E+09,9E+09,9E+09,9E+09,9E+09]],v1000,z1,Extruder_Baugruppe \WObj:=wobjHeizbett;
		MoveL [[144.998,134.899,0.250],[0.00000000,-0.70419257,0.71000903,0.00000000],[1,0,-1,1],[9E+09,9E+09,9E+09,9E+09,9E+09,9E+09]],v50,z1,Extruder_Baugruppe \WObj:=wobjHeizbett;
		ExtruderSpeed 3.000;
		MoveL [[164.319,154.220,0.250],[0.00000000,-0.70419257,0.71000903,-0.00000000],[1,0,-1,1],[9E+09,9E+09,9E+09,9E+09,9E+09,9E+09]],v30,z1,Extruder_Baugruppe \WObj:=wobjHeizbett;
		ExtruderSpeed 0.000;
		MoveL [[144.998,173.541,0.250],[0.00000000,-0.70419257,0.71000903,-0.00000000],[1,0,-1,1],[9E+09,9E+09,9E+09,9E+09,9E+09,9E+09]],v30,z1,Extruder_Baugruppe \WObj:=wobjHeizbett;
		MoveL [[144.998,173.541,0.350],[0.00000000,-0.70419257,0.71000903,-0.00000000],[1,0,-1,1],[9E+09,9E+09,9E+09,9E+09,9E+09,9E+09]],v50,z1,Extruder_Baugruppe \WObj:=wobjHeizbett;
		MoveL [[147.448,134.899,0.350],[0.00000000,-0.70419257,0.71000903,-0.00000000],[1,0,-1,1],[9E+09,9E+09,9E+09,9E+09,9E+09,9E+09]],v1000,z1,Extruder_Baugruppe \WObj:=wobjHeizbett;
		MoveL [[147.448,134.899,0.250],[0.00000000,-0.70419257,0.71000903,0.00000000],[1,0,-1,1],[9E+09,9E+09,9E+09,9E+09,9E+09,9E+09]],v50,z1,Extruder_Baugruppe \WObj:=wobjHeizbett;
		M_RunCode 117;
		ExtruderSpeed 3.000;
		MoveL [[166.769,154.220,0.250],[0.00000000,-0.70419257,0.71000903,-0.00000000],[1,0,-1,1],[9E+09,9E+09,9E+09,9E+09,9E+09,9E+09]],v30,z1,Extruder_Baugruppe \WObj:=wobjHeizbett;
		ExtruderSpeed 0.000;
		MoveL [[147.448,173.541,0.250],[0.00000000,-0.70419257,0.71000903,-0.00000000],[1,0,-1,1],[9E+09,9E+09,9E+09,9E+09,9E+09,9E+09]],v30,z1,Extruder_Baugruppe \WObj:=wobjHeizbett;
		MoveL [[147.448,173.541,0.350],[0.00000000,-0.70419257,0.71000903,-0.00000000],[1,0,-1,1],[9E+09,9E+09,9E+09,9E+09,9E+09,9E+09]],v50,z1,Extruder_Baugruppe \WObj:=wobjHeizbett;
		MoveL [[148.024,134.899,0.350],[0.00000000,-0.70419257,0.71000903,-0.00000000],[1,0,-1,1],[9E+09,9E+09,9E+09,9E+09,9E+09,9E+09]],v1000,z1,Extruder_Baugruppe \WObj:=wobjHeizbett;
		MoveL [[148.024,134.899,0.250],[0.00000000,-0.70419257,0.71000903,-0.00000000],[1,0,-1,1],[9E+09,9E+09,9E+09,9E+09,9E+09,9E+09]],v50,z1,Extruder_Baugruppe \WObj:=wobjHeizbett;
		ExtruderSpeed 3.000;
		MoveL [[167.345,154.220,0.250],[0.00000000,-0.70419257,0.71000903,0.00000000],[1,0,-1,1],[9E+09,9E+09,9E+09,9E+09,9E+09,9E+09]],v30,z1,Extruder_Baugruppe \WObj:=wobjHeizbett;
		ExtruderSpeed 0.000;
		MoveL [[148.024,173.541,0.250],[0.00000000,-0.70419257,0.71000903,-0.00000000],[1,0,-1,1],[9E+09,9E+09,9E+09,9E+09,9E+09,9E+09]],v30,z1,Extruder_Baugruppe \WObj:=wobjHeizbett;
		MoveL [[148.024,173.541,0.350],[0.00000000,-0.70419257,0.71000903,-0.00000000],[1,0,-1,1],[9E+09,9E+09,9E+09,9E+09,9E+09,9E+09]],v50,z1,Extruder_Baugruppe \WObj:=wobjHeizbett;
		MoveL [[148.599,134.899,0.350],[0.00000000,-0.70419257,0.71000903,-0.00000000],[1,0,-1,1],[9E+09,9E+09,9E+09,9E+09,9E+09,9E+09]],v1000,z1,Extruder_Baugruppe \WObj:=wobjHeizbett;
		MoveL [[148.600,134.899,0.250],[0.00000000,-0.70419257,0.71000903,-0.00000000],[1,0,-1,1],[9E+09,9E+09,9E+09,9E+09,9E+09,9E+09]],v50,z1,Extruder_Baugruppe \WObj:=wobjHeizbett;
		ExtruderSpeed 3.000;
		MoveL [[167.920,154.220,0.250],[0.00000000,-0.70419257,0.71000903,0.00000000],[1,0,-1,1],[9E+09,9E+09,9E+09,9E+09,9E+09,9E+09]],v30,z1,Extruder_Baugruppe \WObj:=wobjHeizbett;
		ExtruderSpeed 0.000;
		MoveL [[148.599,173.541,0.250],[0.00000000,-0.70419257,0.71000903,-0.00000000],[1,0,-1,1],[9E+09,9E+09,9E+09,9E+09,9E+09,9E+09]],v30,z1,Extruder_Baugruppe \WObj:=wobjHeizbett;
		MoveL [[148.599,173.541,0.350],[0.00000000,-0.70419257,0.71000903,-0.00000000],[1,0,-1,1],[9E+09,9E+09,9E+09,9E+09,9E+09,9E+09]],v50,z1,Extruder_Baugruppe \WObj:=wobjHeizbett;
		MoveL [[151.050,134.899,0.350],[0.00000000,-0.70419257,0.71000903,0.00000000],[1,0,-1,1],[9E+09,9E+09,9E+09,9E+09,9E+09,9E+09]],v1000,z1,Extruder_Baugruppe \WObj:=wobjHeizbett;
		MoveL [[151.050,134.899,0.250],[0.00000000,-0.70419257,0.71000903,-0.00000000],[1,0,-1,1],[9E+09,9E+09,9E+09,9E+09,9E+09,9E+09]],v50,z1,Extruder_Baugruppe \WObj:=wobjHeizbett;
		M_RunCode 117;
		ExtruderSpeed 3.000;
		MoveL [[170.370,154.220,0.250],[0.00000000,-0.70419257,0.71000903,0.00000000],[1,0,-1,1],[9E+09,9E+09,9E+09,9E+09,9E+09,9E+09]],v30,z1,Extruder_Baugruppe \WObj:=wobjHeizbett;
		ExtruderSpeed 0.000;
		MoveL [[151.049,173.541,0.250],[0.00000000,-0.70419257,0.71000903,0.00000000],[1,0,-1,1],[9E+09,9E+09,9E+09,9E+09,9E+09,9E+09]],v30,z1,Extruder_Baugruppe \WObj:=wobjHeizbett;
		MoveL [[151.050,173.541,0.350],[0.00000000,-0.70419257,0.71000903,-0.00000000],[1,0,-1,1],[9E+09,9E+09,9E+09,9E+09,9E+09,9E+09]],v50,z1,Extruder_Baugruppe \WObj:=wobjHeizbett;
		MoveL [[151.625,134.899,0.350],[0.00000000,-0.70419257,0.71000903,-0.00000000],[1,0,-1,1],[9E+09,9E+09,9E+09,9E+09,9E+09,9E+09]],v1000,z1,Extruder_Baugruppe \WObj:=wobjHeizbett;
		MoveL [[151.625,134.899,0.250],[0.00000000,-0.70419257,0.71000903,-0.00000000],[1,0,-1,1],[9E+09,9E+09,9E+09,9E+09,9E+09,9E+09]],v50,z1,Extruder_Baugruppe \WObj:=wobjHeizbett;
		ExtruderSpeed 3.000;
		MoveL [[170.946,154.220,0.250],[0.00000000,-0.70419257,0.71000903,-0.00000000],[1,0,-1,1],[9E+09,9E+09,9E+09,9E+09,9E+09,9E+09]],v30,z1,Extruder_Baugruppe \WObj:=wobjHeizbett;
		ExtruderSpeed 0.000;
		MoveL [[151.625,173.541,0.250],[0.00000000,-0.70419257,0.71000903,-0.00000000],[1,0,-1,1],[9E+09,9E+09,9E+09,9E+09,9E+09,9E+09]],v30,z1,Extruder_Baugruppe \WObj:=wobjHeizbett;
		MoveL [[151.625,173.541,0.350],[0.00000000,-0.70419257,0.71000903,-0.00000000],[1,0,-1,1],[9E+09,9E+09,9E+09,9E+09,9E+09,9E+09]],v50,z1,Extruder_Baugruppe \WObj:=wobjHeizbett;
		MoveL [[152.201,134.899,0.350],[0.00000000,-0.70419257,0.71000903,-0.00000000],[1,0,-1,1],[9E+09,9E+09,9E+09,9E+09,9E+09,9E+09]],v1000,z1,Extruder_Baugruppe \WObj:=wobjHeizbett;
		MoveL [[152.201,134.899,0.250],[0.00000000,-0.70419257,0.71000903,0.00000000],[1,0,-1,1],[9E+09,9E+09,9E+09,9E+09,9E+09,9E+09]],v50,z1,Extruder_Baugruppe \WObj:=wobjHeizbett;
		ExtruderSpeed 3.000;
		MoveL [[171.522,154.220,0.250],[0.00000000,-0.70419257,0.71000903,-0.00000000],[1,0,-1,1],[9E+09,9E+09,9E+09,9E+09,9E+09,9E+09]],v30,z1,Extruder_Baugruppe \WObj:=wobjHeizbett;
		ExtruderSpeed 0.000;
		MoveL [[152.201,173.541,0.250],[0.00000000,-0.70419257,0.71000903,-0.00000000],[1,0,-1,1],[9E+09,9E+09,9E+09,9E+09,9E+09,9E+09]],v30,z1,Extruder_Baugruppe \WObj:=wobjHeizbett;
		MoveL [[152.201,173.541,0.350],[0.00000000,-0.70419257,0.71000903,-0.00000000],[1,0,-1,1],[9E+09,9E+09,9E+09,9E+09,9E+09,9E+09]],v50,z1,Extruder_Baugruppe \WObj:=wobjHeizbett;
		MoveL [[154.651,134.899,0.350],[0.00000000,-0.70419257,0.71000903,0.00000000],[1,0,-1,1],[9E+09,9E+09,9E+09,9E+09,9E+09,9E+09]],v1000,z1,Extruder_Baugruppe \WObj:=wobjHeizbett;
		MoveL [[154.651,134.899,0.250],[0.00000000,-0.70419257,0.71000903,-0.00000000],[1,0,-1,1],[9E+09,9E+09,9E+09,9E+09,9E+09,9E+09]],v50,z1,Extruder_Baugruppe \WObj:=wobjHeizbett;
		M_RunCode 117;
		ExtruderSpeed 3.000;
		MoveL [[173.972,154.220,0.250],[0.00000000,-0.70419257,0.71000903,-0.00000000],[1,0,-1,1],[9E+09,9E+09,9E+09,9E+09,9E+09,9E+09]],v30,z1,Extruder_Baugruppe \WObj:=wobjHeizbett;
		ExtruderSpeed 0.000;
		MoveL [[154.651,173.541,0.250],[0.00000000,-0.70419257,0.71000903,-0.00000000],[1,0,-1,1],[9E+09,9E+09,9E+09,9E+09,9E+09,9E+09]],v30,z1,Extruder_Baugruppe \WObj:=wobjHeizbett;
		MoveL [[154.651,173.541,0.350],[0.00000000,-0.70419257,0.71000903,-0.00000000],[1,0,-1,1],[9E+09,9E+09,9E+09,9E+09,9E+09,9E+09]],v50,z1,Extruder_Baugruppe \WObj:=wobjHeizbett;
		MoveL [[155.227,134.899,0.350],[0.00000000,-0.70419257,0.71000903,-0.00000000],[1,0,-1,1],[9E+09,9E+09,9E+09,9E+09,9E+09,9E+09]],v1000,z1,Extruder_Baugruppe \WObj:=wobjHeizbett;
		MoveL [[155.227,134.899,0.250],[0.00000000,-0.70419257,0.71000903,0.00000000],[1,0,-1,1],[9E+09,9E+09,9E+09,9E+09,9E+09,9E+09]],v50,z1,Extruder_Baugruppe \WObj:=wobjHeizbett;
		ExtruderSpeed 3.000;
		MoveL [[174.548,154.220,0.250],[0.00000000,-0.70419257,0.71000903,0.00000000],[1,0,-1,1],[9E+09,9E+09,9E+09,9E+09,9E+09,9E+09]],v30,z1,Extruder_Baugruppe \WObj:=wobjHeizbett;
		ExtruderSpeed 0.000;
		MoveL [[155.227,173.541,0.250],[0.00000000,-0.70419257,0.71000903,-0.00000000],[1,0,-1,1],[9E+09,9E+09,9E+09,9E+09,9E+09,9E+09]],v30,z1,Extruder_Baugruppe \WObj:=wobjHeizbett;
		MoveL [[155.227,173.541,0.350],[0.00000000,-0.70419257,0.71000903,-0.00000000],[1,0,-1,1],[9E+09,9E+09,9E+09,9E+09,9E+09,9E+09]],v50,z1,Extruder_Baugruppe \WObj:=wobjHeizbett;
		MoveL [[155.802,134.899,0.350],[0.00000000,-0.70419257,0.71000903,-0.00000000],[1,0,-1,1],[9E+09,9E+09,9E+09,9E+09,9E+09,9E+09]],v1000,z1,Extruder_Baugruppe \WObj:=wobjHeizbett;
		MoveL [[155.802,134.899,0.250],[0.00000000,-0.70419257,0.71000903,0.00000000],[1,0,-1,1],[9E+09,9E+09,9E+09,9E+09,9E+09,9E+09]],v50,z1,Extruder_Baugruppe \WObj:=wobjHeizbett;
		ExtruderSpeed 3.000;
		MoveL [[175.123,154.220,0.250],[0.00000000,-0.70419257,0.71000903,0.00000000],[1,0,-1,1],[9E+09,9E+09,9E+09,9E+09,9E+09,9E+09]],v30,z1,Extruder_Baugruppe \WObj:=wobjHeizbett;
		ExtruderSpeed 0.000;
		MoveL [[155.802,173.541,0.250],[0.00000000,-0.70419257,0.71000903,-0.00000000],[1,0,-1,1],[9E+09,9E+09,9E+09,9E+09,9E+09,9E+09]],v30,z1,Extruder_Baugruppe \WObj:=wobjHeizbett;
		MoveL [[155.802,173.541,0.350],[0.00000000,-0.70419257,0.71000903,-0.00000000],[1,0,-1,1],[9E+09,9E+09,9E+09,9E+09,9E+09,9E+09]],v50,z1,Extruder_Baugruppe \WObj:=wobjHeizbett;
		MoveL [[158.252,134.899,0.350],[0.00000000,-0.70419257,0.71000903,-0.00000000],[1,0,-1,1],[9E+09,9E+09,9E+09,9E+09,9E+09,9E+09]],v1000,z1,Extruder_Baugruppe \WObj:=wobjHeizbett;
		MoveL [[158.252,134.899,0.250],[0.00000000,-0.70419257,0.71000903,-0.00000000],[1,0,-1,1],[9E+09,9E+09,9E+09,9E+09,9E+09,9E+09]],v50,z1,Extruder_Baugruppe \WObj:=wobjHeizbett;
		M_RunCode 117;
		ExtruderSpeed 3.000;
		MoveL [[177.573,154.220,0.250],[0.00000000,-0.70419257,0.71000903,0.00000000],[1,0,-1,1],[9E+09,9E+09,9E+09,9E+09,9E+09,9E+09]],v30,z1,Extruder_Baugruppe \WObj:=wobjHeizbett;
		ExtruderSpeed 0.000;
		MoveL [[158.252,173.541,0.250],[0.00000000,-0.70419257,0.71000903,0.00000000],[1,0,-1,1],[9E+09,9E+09,9E+09,9E+09,9E+09,9E+09]],v30,z1,Extruder_Baugruppe \WObj:=wobjHeizbett;
		MoveL [[158.252,173.541,0.350],[0.00000000,-0.70419257,0.71000903,-0.00000000],[1,0,-1,1],[9E+09,9E+09,9E+09,9E+09,9E+09,9E+09]],v50,z1,Extruder_Baugruppe \WObj:=wobjHeizbett;
		MoveL [[158.828,134.899,0.350],[0.00000000,-0.70419257,0.71000903,-0.00000000],[1,0,-1,1],[9E+09,9E+09,9E+09,9E+09,9E+09,9E+09]],v1000,z1,Extruder_Baugruppe \WObj:=wobjHeizbett;
		MoveL [[158.828,134.899,0.250],[0.00000000,-0.70419257,0.71000903,-0.00000000],[1,0,-1,1],[9E+09,9E+09,9E+09,9E+09,9E+09,9E+09]],v50,z1,Extruder_Baugruppe \WObj:=wobjHeizbett;
		ExtruderSpeed 3.000;
		MoveL [[178.149,154.220,0.250],[0.00000000,-0.70419257,0.71000903,-0.00000000],[1,0,-1,1],[9E+09,9E+09,9E+09,9E+09,9E+09,9E+09]],v30,z1,Extruder_Baugruppe \WObj:=wobjHeizbett;
		ExtruderSpeed 0.000;
		MoveL [[158.828,173.541,0.250],[0.00000000,-0.70419257,0.71000903,-0.00000000],[1,0,-1,1],[9E+09,9E+09,9E+09,9E+09,9E+09,9E+09]],v30,z1,Extruder_Baugruppe \WObj:=wobjHeizbett;
		MoveL [[158.828,173.541,0.350],[0.00000000,-0.70419257,0.71000903,0.00000000],[1,0,-1,1],[9E+09,9E+09,9E+09,9E+09,9E+09,9E+09]],v50,z1,Extruder_Baugruppe \WObj:=wobjHeizbett;
		MoveL [[159.404,134.899,0.350],[0.00000000,-0.70419257,0.71000903,-0.00000000],[1,0,-1,1],[9E+09,9E+09,9E+09,9E+09,9E+09,9E+09]],v1000,z1,Extruder_Baugruppe \WObj:=wobjHeizbett;
		MoveL [[159.404,134.899,0.250],[0.00000000,-0.70419257,0.71000903,0.00000000],[1,0,-1,1],[9E+09,9E+09,9E+09,9E+09,9E+09,9E+09]],v50,z1,Extruder_Baugruppe \WObj:=wobjHeizbett;
		ExtruderSpeed 3.000;
		MoveL [[178.725,154.220,0.250],[0.00000000,-0.70419257,0.71000903,0.00000000],[1,0,-1,1],[9E+09,9E+09,9E+09,9E+09,9E+09,9E+09]],v30,z1,Extruder_Baugruppe \WObj:=wobjHeizbett;
		ExtruderSpeed 0.000;
		MoveL [[159.404,173.541,0.250],[0.00000000,-0.70419257,0.71000903,-0.00000000],[1,0,-1,1],[9E+09,9E+09,9E+09,9E+09,9E+09,9E+09]],v30,z1,Extruder_Baugruppe \WObj:=wobjHeizbett;
		MoveL [[159.404,173.541,0.350],[0.00000000,-0.70419257,0.71000903,0.00000000],[1,0,-1,1],[9E+09,9E+09,9E+09,9E+09,9E+09,9E+09]],v50,z1,Extruder_Baugruppe \WObj:=wobjHeizbett;
		MoveL [[161.854,134.899,0.350],[0.00000000,-0.70419257,0.71000903,0.00000000],[1,0,-1,1],[9E+09,9E+09,9E+09,9E+09,9E+09,9E+09]],v1000,z1,Extruder_Baugruppe \WObj:=wobjHeizbett;
		MoveL [[161.854,134.899,0.250],[0.00000000,-0.70419257,0.71000903,-0.00000000],[1,0,-1,1],[9E+09,9E+09,9E+09,9E+09,9E+09,9E+09]],v50,z1,Extruder_Baugruppe \WObj:=wobjHeizbett;
		M_RunCode 117;
		ExtruderSpeed 3.000;
		MoveL [[181.175,154.220,0.250],[0.00000000,-0.70419257,0.71000903,-0.00000000],[1,0,-1,1],[9E+09,9E+09,9E+09,9E+09,9E+09,9E+09]],v30,z1,Extruder_Baugruppe \WObj:=wobjHeizbett;
		ExtruderSpeed 0.000;
		MoveL [[161.854,173.541,0.250],[0.00000000,-0.70419257,0.71000903,0.00000000],[1,0,-1,1],[9E+09,9E+09,9E+09,9E+09,9E+09,9E+09]],v30,z1,Extruder_Baugruppe \WObj:=wobjHeizbett;
		MoveL [[161.854,173.541,0.350],[0.00000000,-0.70419257,0.71000903,-0.00000000],[1,0,-1,1],[9E+09,9E+09,9E+09,9E+09,9E+09,9E+09]],v50,z1,Extruder_Baugruppe \WObj:=wobjHeizbett;
		MoveL [[162.429,134.899,0.350],[0.00000000,-0.70419257,0.71000903,0.00000000],[1,0,-1,1],[9E+09,9E+09,9E+09,9E+09,9E+09,9E+09]],v1000,z1,Extruder_Baugruppe \WObj:=wobjHeizbett;
		MoveL [[162.429,134.899,0.250],[0.00000000,-0.70419257,0.71000903,0.00000000],[1,0,-1,1],[9E+09,9E+09,9E+09,9E+09,9E+09,9E+09]],v50,z1,Extruder_Baugruppe \WObj:=wobjHeizbett;
		ExtruderSpeed 3.000;
		MoveL [[181.750,154.220,0.250],[0.00000000,-0.70419257,0.71000903,-0.00000000],[1,0,-1,1],[9E+09,9E+09,9E+09,9E+09,9E+09,9E+09]],v30,z1,Extruder_Baugruppe \WObj:=wobjHeizbett;
		ExtruderSpeed 0.000;
		MoveL [[162.429,173.541,0.250],[0.00000000,-0.70419257,0.71000903,0.00000000],[1,0,-1,1],[9E+09,9E+09,9E+09,9E+09,9E+09,9E+09]],v30,z1,Extruder_Baugruppe \WObj:=wobjHeizbett;
		MoveL [[162.429,173.541,0.350],[0.00000000,-0.70419257,0.71000903,0.00000000],[1,0,-1,1],[9E+09,9E+09,9E+09,9E+09,9E+09,9E+09]],v50,z1,Extruder_Baugruppe \WObj:=wobjHeizbett;
		MoveL [[163.005,134.899,0.350],[0.00000000,-0.70419257,0.71000903,-0.00000000],[1,0,-1,1],[9E+09,9E+09,9E+09,9E+09,9E+09,9E+09]],v1000,z1,Extruder_Baugruppe \WObj:=wobjHeizbett;
		MoveL [[163.005,134.899,0.250],[0.00000000,-0.70419257,0.71000903,-0.00000000],[1,0,-1,1],[9E+09,9E+09,9E+09,9E+09,9E+09,9E+09]],v50,z1,Extruder_Baugruppe \WObj:=wobjHeizbett;
		ExtruderSpeed 3.000;
		MoveL [[182.326,154.220,0.250],[0.00000000,-0.70419257,0.71000903,-0.00000000],[1,0,-1,1],[9E+09,9E+09,9E+09,9E+09,9E+09,9E+09]],v30,z1,Extruder_Baugruppe \WObj:=wobjHeizbett;
		ExtruderSpeed 0.000;
		MoveL [[163.005,173.541,0.250],[0.00000000,-0.70419257,0.71000903,-0.00000000],[1,0,-1,1],[9E+09,9E+09,9E+09,9E+09,9E+09,9E+09]],v30,z1,Extruder_Baugruppe \WObj:=wobjHeizbett;
		MoveL [[163.005,173.541,0.350],[0.00000000,-0.70419257,0.71000903,0.00000000],[1,0,-1,1],[9E+09,9E+09,9E+09,9E+09,9E+09,9E+09]],v50,z1,Extruder_Baugruppe \WObj:=wobjHeizbett;
		MoveL [[165.455,134.899,0.350],[0.00000000,-0.70419257,0.71000903,-0.00000000],[1,0,-1,1],[9E+09,9E+09,9E+09,9E+09,9E+09,9E+09]],v1000,z1,Extruder_Baugruppe \WObj:=wobjHeizbett;
		MoveL [[165.455,134.899,0.250],[0.00000000,-0.70419257,0.71000903,0.00000000],[1,0,-1,1],[9E+09,9E+09,9E+09,9E+09,9E+09,9E+09]],v50,z1,Extruder_Baugruppe \WObj:=wobjHeizbett;
		M_RunCode 117;
		ExtruderSpeed 3.000;
		MoveL [[184.776,154.220,0.250],[0.00000000,-0.70419257,0.71000903,0.00000000],[1,0,-1,1],[9E+09,9E+09,9E+09,9E+09,9E+09,9E+09]],v30,z1,Extruder_Baugruppe \WObj:=wobjHeizbett;
		ExtruderSpeed 0.000;
		MoveL [[165.455,173.541,0.250],[0.00000000,-0.70419257,0.71000903,0.00000000],[1,0,-1,1],[9E+09,9E+09,9E+09,9E+09,9E+09,9E+09]],v30,z1,Extruder_Baugruppe \WObj:=wobjHeizbett;
		MoveL [[165.455,173.541,0.350],[0.00000000,-0.70419257,0.71000903,-0.00000000],[1,0,-1,1],[9E+09,9E+09,9E+09,9E+09,9E+09,9E+09]],v50,z1,Extruder_Baugruppe \WObj:=wobjHeizbett;
		MoveL [[166.031,134.899,0.350],[0.00000000,-0.70419257,0.71000903,0.00000000],[1,0,-1,1],[9E+09,9E+09,9E+09,9E+09,9E+09,9E+09]],v1000,z1,Extruder_Baugruppe \WObj:=wobjHeizbett;
		MoveL [[166.031,134.899,0.250],[0.00000000,-0.70419257,0.71000903,-0.00000000],[1,0,-1,1],[9E+09,9E+09,9E+09,9E+09,9E+09,9E+09]],v50,z1,Extruder_Baugruppe \WObj:=wobjHeizbett;
		ExtruderSpeed 3.000;
		MoveL [[185.352,154.220,0.250],[0.00000000,-0.70419257,0.71000903,-0.00000000],[1,0,-1,1],[9E+09,9E+09,9E+09,9E+09,9E+09,9E+09]],v30,z1,Extruder_Baugruppe \WObj:=wobjHeizbett;
		ExtruderSpeed 0.000;
		MoveL [[166.031,173.541,0.250],[0.00000000,-0.70419257,0.71000903,-0.00000000],[1,0,-1,1],[9E+09,9E+09,9E+09,9E+09,9E+09,9E+09]],v30,z1,Extruder_Baugruppe \WObj:=wobjHeizbett;
		MoveL [[166.031,173.541,0.350],[0.00000000,-0.70419257,0.71000903,-0.00000000],[1,0,-1,1],[9E+09,9E+09,9E+09,9E+09,9E+09,9E+09]],v50,z1,Extruder_Baugruppe \WObj:=wobjHeizbett;
		MoveL [[166.606,134.899,0.350],[0.00000000,-0.70419257,0.71000903,-0.00000000],[1,0,-1,1],[9E+09,9E+09,9E+09,9E+09,9E+09,9E+09]],v1000,z1,Extruder_Baugruppe \WObj:=wobjHeizbett;
		MoveL [[166.607,134.899,0.250],[0.00000000,-0.70419257,0.71000903,-0.00000000],[1,0,-1,1],[9E+09,9E+09,9E+09,9E+09,9E+09,9E+09]],v50,z1,Extruder_Baugruppe \WObj:=wobjHeizbett;
		ExtruderSpeed 3.000;
		MoveL [[185.927,154.220,0.250],[0.00000000,-0.70419257,0.71000903,-0.00000000],[1,0,-1,1],[9E+09,9E+09,9E+09,9E+09,9E+09,9E+09]],v30,z1,Extruder_Baugruppe \WObj:=wobjHeizbett;
		ExtruderSpeed 0.000;
		MoveL [[166.607,173.541,0.250],[0.00000000,-0.70419257,0.71000903,-0.00000000],[1,0,-1,1],[9E+09,9E+09,9E+09,9E+09,9E+09,9E+09]],v30,z1,Extruder_Baugruppe \WObj:=wobjHeizbett;
		MoveL [[166.607,173.541,0.350],[0.00000000,-0.70419257,0.71000903,0.00000000],[1,0,-1,1],[9E+09,9E+09,9E+09,9E+09,9E+09,9E+09]],v50,z1,Extruder_Baugruppe \WObj:=wobjHeizbett;
		MoveL [[169.057,134.899,0.350],[0.00000000,-0.70419257,0.71000903,-0.00000000],[1,0,-1,1],[9E+09,9E+09,9E+09,9E+09,9E+09,9E+09]],v1000,z1,Extruder_Baugruppe \WObj:=wobjHeizbett;
		MoveL [[169.057,134.899,0.250],[0.00000000,-0.70419257,0.71000903,0.00000000],[1,0,-1,1],[9E+09,9E+09,9E+09,9E+09,9E+09,9E+09]],v50,z1,Extruder_Baugruppe \WObj:=wobjHeizbett;
		M_RunCode 117;
		ExtruderSpeed 3.000;
		MoveL [[188.377,154.220,0.250],[0.00000000,-0.70419257,0.71000903,0.00000000],[1,0,-1,1],[9E+09,9E+09,9E+09,9E+09,9E+09,9E+09]],v30,z1,Extruder_Baugruppe \WObj:=wobjHeizbett;
		ExtruderSpeed 0.000;
		MoveL [[169.056,173.541,0.250],[0.00000000,-0.70419257,0.71000903,-0.00000000],[1,0,-1,1],[9E+09,9E+09,9E+09,9E+09,9E+09,9E+09]],v30,z1,Extruder_Baugruppe \WObj:=wobjHeizbett;
		MoveL [[169.056,173.541,0.350],[0.00000000,-0.70419257,0.71000903,0.00000000],[1,0,-1,1],[9E+09,9E+09,9E+09,9E+09,9E+09,9E+09]],v50,z1,Extruder_Baugruppe \WObj:=wobjHeizbett;
		MoveL [[169.632,134.899,0.350],[0.00000000,-0.70419257,0.71000903,-0.00000000],[1,0,-1,1],[9E+09,9E+09,9E+09,9E+09,9E+09,9E+09]],v1000,z1,Extruder_Baugruppe \WObj:=wobjHeizbett;
		MoveL [[169.632,134.899,0.250],[0.00000000,-0.70419257,0.71000903,-0.00000000],[1,0,-1,1],[9E+09,9E+09,9E+09,9E+09,9E+09,9E+09]],v50,z1,Extruder_Baugruppe \WObj:=wobjHeizbett;
		ExtruderSpeed 3.000;
		MoveL [[188.953,154.220,0.250],[0.00000000,-0.70419257,0.71000903,-0.00000000],[1,0,-1,1],[9E+09,9E+09,9E+09,9E+09,9E+09,9E+09]],v30,z1,Extruder_Baugruppe \WObj:=wobjHeizbett;
		ExtruderSpeed 0.000;
		MoveL [[169.632,173.541,0.250],[0.00000000,-0.70419257,0.71000903,-0.00000000],[1,0,-1,1],[9E+09,9E+09,9E+09,9E+09,9E+09,9E+09]],v30,z1,Extruder_Baugruppe \WObj:=wobjHeizbett;
		MoveL [[169.632,173.541,0.350],[0.00000000,-0.70419257,0.71000903,0.00000000],[1,0,-1,1],[9E+09,9E+09,9E+09,9E+09,9E+09,9E+09]],v50,z1,Extruder_Baugruppe \WObj:=wobjHeizbett;
		MoveL [[170.208,134.899,0.350],[0.00000000,-0.70419257,0.71000903,-0.00000000],[1,0,-1,1],[9E+09,9E+09,9E+09,9E+09,9E+09,9E+09]],v1000,z1,Extruder_Baugruppe \WObj:=wobjHeizbett;
		MoveL [[170.208,134.899,0.250],[0.00000000,-0.70419257,0.71000903,-0.00000000],[1,0,-1,1],[9E+09,9E+09,9E+09,9E+09,9E+09,9E+09]],v50,z1,Extruder_Baugruppe \WObj:=wobjHeizbett;
		ExtruderSpeed 3.000;
		MoveL [[189.529,154.220,0.250],[0.00000000,-0.70419257,0.71000903,-0.00000000],[1,0,-1,1],[9E+09,9E+09,9E+09,9E+09,9E+09,9E+09]],v30,z1,Extruder_Baugruppe \WObj:=wobjHeizbett;
		ExtruderSpeed 0.000;
		MoveL [[170.208,173.541,0.250],[0.00000000,-0.70419257,0.71000903,-0.00000000],[1,0,-1,1],[9E+09,9E+09,9E+09,9E+09,9E+09,9E+09]],v30,z1,Extruder_Baugruppe \WObj:=wobjHeizbett;
		MoveL [[170.208,173.541,0.350],[0.00000000,-0.70419257,0.71000903,-0.00000000],[1,0,-1,1],[9E+09,9E+09,9E+09,9E+09,9E+09,9E+09]],v50,z1,Extruder_Baugruppe \WObj:=wobjHeizbett;
		MoveL [[172.658,134.899,0.350],[0.00000000,-0.70419257,0.71000903,0.00000000],[1,0,-1,1],[9E+09,9E+09,9E+09,9E+09,9E+09,9E+09]],v1000,z1,Extruder_Baugruppe \WObj:=wobjHeizbett;
		MoveL [[172.658,134.899,0.250],[0.00000000,-0.70419257,0.71000903,0.00000000],[1,0,-1,1],[9E+09,9E+09,9E+09,9E+09,9E+09,9E+09]],v50,z1,Extruder_Baugruppe \WObj:=wobjHeizbett;
		M_RunCode 117;
		ExtruderSpeed 3.000;
		MoveL [[191.979,154.220,0.250],[0.00000000,-0.70419257,0.71000903,-0.00000000],[1,0,-1,1],[9E+09,9E+09,9E+09,9E+09,9E+09,9E+09]],v30,z1,Extruder_Baugruppe \WObj:=wobjHeizbett;
		ExtruderSpeed 0.000;
		MoveL [[172.658,173.541,0.250],[0.00000000,-0.70419257,0.71000903,0.00000000],[1,0,-1,1],[9E+09,9E+09,9E+09,9E+09,9E+09,9E+09]],v30,z1,Extruder_Baugruppe \WObj:=wobjHeizbett;
		MoveL [[172.658,173.541,0.350],[0.00000000,-0.70419257,0.71000903,-0.00000000],[1,0,-1,1],[9E+09,9E+09,9E+09,9E+09,9E+09,9E+09]],v50,z1,Extruder_Baugruppe \WObj:=wobjHeizbett;
		MoveL [[173.234,134.899,0.350],[0.00000000,-0.70419257,0.71000903,0.00000000],[1,0,-1,1],[9E+09,9E+09,9E+09,9E+09,9E+09,9E+09]],v1000,z1,Extruder_Baugruppe \WObj:=wobjHeizbett;
		MoveL [[173.234,134.899,0.250],[0.00000000,-0.70419257,0.71000903,-0.00000000],[1,0,-1,1],[9E+09,9E+09,9E+09,9E+09,9E+09,9E+09]],v50,z1,Extruder_Baugruppe \WObj:=wobjHeizbett;
		ExtruderSpeed 3.000;
		MoveL [[192.554,154.220,0.250],[0.00000000,-0.70419257,0.71000903,-0.00000000],[1,0,-1,1],[9E+09,9E+09,9E+09,9E+09,9E+09,9E+09]],v30,z1,Extruder_Baugruppe \WObj:=wobjHeizbett;
		ExtruderSpeed 0.000;
		MoveL [[173.234,173.541,0.250],[0.00000000,-0.70419257,0.71000903,0.00000000],[1,0,-1,1],[9E+09,9E+09,9E+09,9E+09,9E+09,9E+09]],v30,z1,Extruder_Baugruppe \WObj:=wobjHeizbett;
		MoveL [[173.234,173.541,0.350],[0.00000000,-0.70419257,0.71000903,0.00000000],[1,0,-1,1],[9E+09,9E+09,9E+09,9E+09,9E+09,9E+09]],v50,z1,Extruder_Baugruppe \WObj:=wobjHeizbett;
		MoveL [[173.809,134.899,0.350],[0.00000000,-0.70419257,0.71000903,0.00000000],[1,0,-1,1],[9E+09,9E+09,9E+09,9E+09,9E+09,9E+09]],v1000,z1,Extruder_Baugruppe \WObj:=wobjHeizbett;
		MoveL [[173.809,134.899,0.250],[0.00000000,-0.70419257,0.71000903,-0.00000000],[1,0,-1,1],[9E+09,9E+09,9E+09,9E+09,9E+09,9E+09]],v50,z1,Extruder_Baugruppe \WObj:=wobjHeizbett;
		ExtruderSpeed 3.000;
		MoveL [[193.130,154.220,0.250],[0.00000000,-0.70419257,0.71000903,0.00000000],[1,0,-1,1],[9E+09,9E+09,9E+09,9E+09,9E+09,9E+09]],v30,z1,Extruder_Baugruppe \WObj:=wobjHeizbett;
		ExtruderSpeed 0.000;
		MoveL [[173.809,173.541,0.250],[0.00000000,-0.70419257,0.71000903,-0.00000000],[1,0,-1,1],[9E+09,9E+09,9E+09,9E+09,9E+09,9E+09]],v30,z1,Extruder_Baugruppe \WObj:=wobjHeizbett;
		MoveL [[173.809,173.541,0.350],[0.00000000,-0.70419257,0.71000903,0.00000000],[1,0,-1,1],[9E+09,9E+09,9E+09,9E+09,9E+09,9E+09]],v50,z1,Extruder_Baugruppe \WObj:=wobjHeizbett;
		MoveL [[176.259,134.899,0.350],[0.00000000,-0.70419257,0.71000903,-0.00000000],[1,0,-1,1],[9E+09,9E+09,9E+09,9E+09,9E+09,9E+09]],v1000,z1,Extruder_Baugruppe \WObj:=wobjHeizbett;
		MoveL [[176.259,134.899,0.250],[0.00000000,-0.70419257,0.71000903,-0.00000000],[1,0,-1,1],[9E+09,9E+09,9E+09,9E+09,9E+09,9E+09]],v50,z1,Extruder_Baugruppe \WObj:=wobjHeizbett;
		M_RunCode 117;
		ExtruderSpeed 3.000;
		MoveL [[195.580,154.220,0.250],[0.00000000,-0.70419257,0.71000903,-0.00000000],[1,0,-1,1],[9E+09,9E+09,9E+09,9E+09,9E+09,9E+09]],v30,z1,Extruder_Baugruppe \WObj:=wobjHeizbett;
		ExtruderSpeed 0.000;
		MoveL [[176.259,173.541,0.250],[0.00000000,-0.70419257,0.71000903,-0.00000000],[1,0,-1,1],[9E+09,9E+09,9E+09,9E+09,9E+09,9E+09]],v30,z1,Extruder_Baugruppe \WObj:=wobjHeizbett;
		MoveL [[176.259,173.541,0.350],[0.00000000,-0.70419257,0.71000903,-0.00000000],[1,0,-1,1],[9E+09,9E+09,9E+09,9E+09,9E+09,9E+09]],v50,z1,Extruder_Baugruppe \WObj:=wobjHeizbett;
		MoveL [[176.835,134.899,0.350],[0.00000000,-0.70419257,0.71000903,-0.00000000],[1,0,-1,1],[9E+09,9E+09,9E+09,9E+09,9E+09,9E+09]],v1000,z1,Extruder_Baugruppe \WObj:=wobjHeizbett;
		MoveL [[176.835,134.899,0.250],[0.00000000,-0.70419257,0.71000903,-0.00000000],[1,0,-1,1],[9E+09,9E+09,9E+09,9E+09,9E+09,9E+09]],v50,z1,Extruder_Baugruppe \WObj:=wobjHeizbett;
		ExtruderSpeed 3.000;
		MoveL [[196.156,154.220,0.250],[0.00000000,-0.70419257,0.71000903,0.00000000],[1,0,-1,1],[9E+09,9E+09,9E+09,9E+09,9E+09,9E+09]],v30,z1,Extruder_Baugruppe \WObj:=wobjHeizbett;
		ExtruderSpeed 0.000;
		MoveL [[176.835,173.541,0.250],[0.00000000,-0.70419257,0.71000903,-0.00000000],[1,0,-1,1],[9E+09,9E+09,9E+09,9E+09,9E+09,9E+09]],v30,z1,Extruder_Baugruppe \WObj:=wobjHeizbett;
		MoveL [[176.835,173.541,0.350],[0.00000000,-0.70419257,0.71000903,-0.00000000],[1,0,-1,1],[9E+09,9E+09,9E+09,9E+09,9E+09,9E+09]],v50,z1,Extruder_Baugruppe \WObj:=wobjHeizbett;
		MoveL [[177.411,134.899,0.350],[0.00000000,-0.70419257,0.71000903,0.00000000],[1,0,-1,1],[9E+09,9E+09,9E+09,9E+09,9E+09,9E+09]],v1000,z1,Extruder_Baugruppe \WObj:=wobjHeizbett;
		MoveL [[177.411,134.899,0.250],[0.00000000,-0.70419257,0.71000903,-0.00000000],[1,0,-1,1],[9E+09,9E+09,9E+09,9E+09,9E+09,9E+09]],v50,z1,Extruder_Baugruppe \WObj:=wobjHeizbett;
		ExtruderSpeed 3.000;
		MoveL [[196.731,154.220,0.250],[0.00000000,-0.70419257,0.71000903,0.00000000],[1,0,-1,1],[9E+09,9E+09,9E+09,9E+09,9E+09,9E+09]],v30,z1,Extruder_Baugruppe \WObj:=wobjHeizbett;
		ExtruderSpeed 0.000;
		MoveL [[177.411,173.541,0.250],[0.00000000,-0.70419257,0.71000903,-0.00000000],[1,0,-1,1],[9E+09,9E+09,9E+09,9E+09,9E+09,9E+09]],v30,z1,Extruder_Baugruppe \WObj:=wobjHeizbett;
		MoveL [[177.411,173.541,0.350],[0.00000000,-0.70419257,0.71000903,-0.00000000],[1,0,-1,1],[9E+09,9E+09,9E+09,9E+09,9E+09,9E+09]],v50,z1,Extruder_Baugruppe \WObj:=wobjHeizbett;
		MoveL [[179.861,134.899,0.350],[0.00000000,-0.70419257,0.71000903,0.00000000],[1,0,-1,1],[9E+09,9E+09,9E+09,9E+09,9E+09,9E+09]],v1000,z1,Extruder_Baugruppe \WObj:=wobjHeizbett;
		MoveL [[179.861,134.899,0.250],[0.00000000,-0.70419257,0.71000903,-0.00000000],[1,0,-1,1],[9E+09,9E+09,9E+09,9E+09,9E+09,9E+09]],v50,z1,Extruder_Baugruppe \WObj:=wobjHeizbett;
		M_RunCode 117;
		ExtruderSpeed 3.000;
		MoveL [[199.181,154.220,0.250],[0.00000000,-0.70419257,0.71000903,0.00000000],[1,0,-1,1],[9E+09,9E+09,9E+09,9E+09,9E+09,9E+09]],v30,z1,Extruder_Baugruppe \WObj:=wobjHeizbett;
		ExtruderSpeed 0.000;
		MoveL [[179.861,173.541,0.250],[0.00000000,-0.70419257,0.71000903,-0.00000000],[1,0,-1,1],[9E+09,9E+09,9E+09,9E+09,9E+09,9E+09]],v30,z1,Extruder_Baugruppe \WObj:=wobjHeizbett;
		MoveL [[179.861,173.541,0.350],[0.00000000,-0.70419257,0.71000903,-0.00000000],[1,0,-1,1],[9E+09,9E+09,9E+09,9E+09,9E+09,9E+09]],v50,z1,Extruder_Baugruppe \WObj:=wobjHeizbett;
		MoveL [[180.436,134.899,0.350],[0.00000000,-0.70419257,0.71000903,-0.00000000],[1,0,-1,1],[9E+09,9E+09,9E+09,9E+09,9E+09,9E+09]],v1000,z1,Extruder_Baugruppe \WObj:=wobjHeizbett;
		MoveL [[180.436,134.899,0.250],[0.00000000,-0.70419257,0.71000903,-0.00000000],[1,0,-1,1],[9E+09,9E+09,9E+09,9E+09,9E+09,9E+09]],v50,z1,Extruder_Baugruppe \WObj:=wobjHeizbett;
		ExtruderSpeed 3.000;
		MoveL [[199.757,154.220,0.250],[0.00000000,-0.70419257,0.71000903,-0.00000000],[1,0,-1,1],[9E+09,9E+09,9E+09,9E+09,9E+09,9E+09]],v30,z1,Extruder_Baugruppe \WObj:=wobjHeizbett;
		ExtruderSpeed 0.000;
		MoveL [[180.436,173.541,0.250],[0.00000000,-0.70419257,0.71000903,-0.00000000],[1,0,-1,1],[9E+09,9E+09,9E+09,9E+09,9E+09,9E+09]],v30,z1,Extruder_Baugruppe \WObj:=wobjHeizbett;
		MoveL [[180.436,173.541,0.350],[0.00000000,-0.70419257,0.71000903,-0.00000000],[1,0,-1,1],[9E+09,9E+09,9E+09,9E+09,9E+09,9E+09]],v50,z1,Extruder_Baugruppe \WObj:=wobjHeizbett;
		MoveL [[181.012,134.899,0.350],[0.00000000,-0.70419257,0.71000903,-0.00000000],[1,0,-1,1],[9E+09,9E+09,9E+09,9E+09,9E+09,9E+09]],v1000,z1,Extruder_Baugruppe \WObj:=wobjHeizbett;
		MoveL [[181.012,134.899,0.250],[0.00000000,-0.70419257,0.71000903,-0.00000000],[1,0,-1,1],[9E+09,9E+09,9E+09,9E+09,9E+09,9E+09]],v50,z1,Extruder_Baugruppe \WObj:=wobjHeizbett;
		ExtruderSpeed 3.000;
		MoveL [[200.333,154.220,0.250],[0.00000000,-0.70419257,0.71000903,-0.00000000],[1,0,-1,1],[9E+09,9E+09,9E+09,9E+09,9E+09,9E+09]],v30,z1,Extruder_Baugruppe \WObj:=wobjHeizbett;
		ExtruderSpeed 0.000;
		MoveL [[181.012,173.541,0.250],[0.00000000,-0.70419257,0.71000903,-0.00000000],[1,0,-1,1],[9E+09,9E+09,9E+09,9E+09,9E+09,9E+09]],v30,z1,Extruder_Baugruppe \WObj:=wobjHeizbett;
		MoveL [[181.012,173.541,0.350],[0.00000000,-0.70419257,0.71000903,0.00000000],[1,0,-1,1],[9E+09,9E+09,9E+09,9E+09,9E+09,9E+09]],v50,z1,Extruder_Baugruppe \WObj:=wobjHeizbett;
		MoveL [[122.238,134.899,0.350],[0.00000000,-0.70419257,0.71000903,-0.00000000],[1,0,-1,1],[9E+09,9E+09,9E+09,9E+09,9E+09,9E+09]],v1000,z1,Extruder_Baugruppe \WObj:=wobjHeizbett;
		MoveL [[122.238,134.899,0.250],[0.00000000,-0.70419257,0.71000903,0.00000000],[1,0,-1,1],[9E+09,9E+09,9E+09,9E+09,9E+09,9E+09]],v50,z1,Extruder_Baugruppe \WObj:=wobjHeizbett;
		SetRPM 255.0;
		M_RunCode 106;
		ExtruderSpeed 5.000;
		MoveL [[122.238,134.899,0.450],[0.00000000,-0.70419257,0.71000903,-0.00000000],[1,0,-1,1],[9E+09,9E+09,9E+09,9E+09,9E+09,9E+09]],v50,z1,Extruder_Baugruppe \WObj:=wobjHeizbett;
		M_RunCode 117;
		ExtruderSpeed 0.000;
		MoveL [[122.238,134.899,0.550],[0.00000000,-0.70419257,0.71000903,0.00000000],[1,0,-1,1],[9E+09,9E+09,9E+09,9E+09,9E+09,9E+09]],v50,z1,Extruder_Baugruppe \WObj:=wobjHeizbett;
		MoveL [[118.922,176.883,0.550],[0.00000000,-0.70419257,0.71000903,0.00000000],[1,0,-1,1],[9E+09,9E+09,9E+09,9E+09,9E+09,9E+09]],v1000,z1,Extruder_Baugruppe \WObj:=wobjHeizbett;
		MoveL [[118.922,176.883,0.450],[0.00000000,-0.70419257,0.71000903,-0.00000000],[1,0,-1,1],[9E+09,9E+09,9E+09,9E+09,9E+09,9E+09]],v50,z1,Extruder_Baugruppe \WObj:=wobjHeizbett;
		ExtruderSpeed 3.000;
		MoveL [[120.922,176.883,0.450],[0.00000000,-0.70419257,0.71000903,-0.00000000],[1,0,-1,1],[9E+09,9E+09,9E+09,9E+09,9E+09,9E+09]],v30,z1,Extruder_Baugruppe \WObj:=wobjHeizbett;
		ExtruderSpeed 0.000;
		MoveL [[122.922,176.883,0.450],[0.00000000,-0.70419257,0.71000903,0.00000000],[1,0,-1,1],[9E+09,9E+09,9E+09,9E+09,9E+09,9E+09]],v30,z1,Extruder_Baugruppe \WObj:=wobjHeizbett;
		MoveL [[122.922,178.883,0.450],[0.00000000,-0.70419257,0.71000903,-0.00000000],[1,0,-1,1],[9E+09,9E+09,9E+09,9E+09,9E+09,9E+09]],v30,z1,Extruder_Baugruppe \WObj:=wobjHeizbett;
		MoveL [[120.922,178.883,0.450],[0.00000000,-0.70419257,0.71000903,-0.00000000],[1,0,-1,1],[9E+09,9E+09,9E+09,9E+09,9E+09,9E+09]],v30,z1,Extruder_Baugruppe \WObj:=wobjHeizbett;
		MoveL [[118.922,178.883,0.450],[0.00000000,-0.70419257,0.71000903,-0.00000000],[1,0,-1,1],[9E+09,9E+09,9E+09,9E+09,9E+09,9E+09]],v30,z1,Extruder_Baugruppe \WObj:=wobjHeizbett;
		MoveL [[118.922,176.883,0.450],[0.00000000,-0.70419257,0.71000903,-0.00000000],[1,0,-1,1],[9E+09,9E+09,9E+09,9E+09,9E+09,9E+09]],v30,z1,Extruder_Baugruppe \WObj:=wobjHeizbett;
		MoveL [[118.922,176.883,0.550],[0.00000000,-0.70419257,0.71000903,0.00000000],[1,0,-1,1],[9E+09,9E+09,9E+09,9E+09,9E+09,9E+09]],v50,z1,Extruder_Baugruppe \WObj:=wobjHeizbett;
		MoveL [[126.124,176.883,0.550],[0.00000000,-0.70419257,0.71000903,0.00000000],[1,0,-1,1],[9E+09,9E+09,9E+09,9E+09,9E+09,9E+09]],v1000,z1,Extruder_Baugruppe \WObj:=wobjHeizbett;
		MoveL [[126.124,176.883,0.450],[0.00000000,-0.70419257,0.71000903,-0.00000000],[1,0,-1,1],[9E+09,9E+09,9E+09,9E+09,9E+09,9E+09]],v50,z1,Extruder_Baugruppe \WObj:=wobjHeizbett;
		ExtruderSpeed 3.000;
		MoveL [[128.124,176.883,0.450],[0.00000000,-0.70419257,0.71000903,-0.00000000],[1,0,-1,1],[9E+09,9E+09,9E+09,9E+09,9E+09,9E+09]],v30,z1,Extruder_Baugruppe \WObj:=wobjHeizbett;
		ExtruderSpeed 0.000;
		MoveL [[130.125,176.883,0.450],[0.00000000,-0.70419257,0.71000903,-0.00000000],[1,0,-1,1],[9E+09,9E+09,9E+09,9E+09,9E+09,9E+09]],v30,z1,Extruder_Baugruppe \WObj:=wobjHeizbett;
		MoveL [[130.125,178.883,0.450],[0.00000000,-0.70419257,0.71000903,-0.00000000],[1,0,-1,1],[9E+09,9E+09,9E+09,9E+09,9E+09,9E+09]],v30,z1,Extruder_Baugruppe \WObj:=wobjHeizbett;
		MoveL [[128.125,178.883,0.450],[0.00000000,-0.70419257,0.71000903,-0.00000000],[1,0,-1,1],[9E+09,9E+09,9E+09,9E+09,9E+09,9E+09]],v30,z1,Extruder_Baugruppe \WObj:=wobjHeizbett;
		MoveL [[126.124,178.883,0.450],[0.00000000,-0.70419257,0.71000903,0.00000000],[1,0,-1,1],[9E+09,9E+09,9E+09,9E+09,9E+09,9E+09]],v30,z1,Extruder_Baugruppe \WObj:=wobjHeizbett;
		MoveL [[126.124,176.883,0.450],[0.00000000,-0.70419257,0.71000903,-0.00000000],[1,0,-1,1],[9E+09,9E+09,9E+09,9E+09,9E+09,9E+09]],v30,z1,Extruder_Baugruppe \WObj:=wobjHeizbett;
		MoveL [[126.124,176.883,0.550],[0.00000000,-0.70419257,0.71000903,0.00000000],[1,0,-1,1],[9E+09,9E+09,9E+09,9E+09,9E+09,9E+09]],v50,z1,Extruder_Baugruppe \WObj:=wobjHeizbett;
		MoveL [[130.125,179.883,0.550],[0.00000000,-0.70419257,0.71000903,-0.00000000],[1,0,-1,1],[9E+09,9E+09,9E+09,9E+09,9E+09,9E+09]],v1000,z1,Extruder_Baugruppe \WObj:=wobjHeizbett;
		MoveL [[130.125,179.883,0.450],[0.00000000,-0.70419257,0.71000903,-0.00000000],[1,0,-1,1],[9E+09,9E+09,9E+09,9E+09,9E+09,9E+09]],v50,z1,Extruder_Baugruppe \WObj:=wobjHeizbett;
		ExtruderSpeed 3.000;
		MoveL [[129.374,179.883,0.450],[0.00000000,-0.70419257,0.71000903,-0.00000000],[1,0,-1,1],[9E+09,9E+09,9E+09,9E+09,9E+09,9E+09]],v30,z1,Extruder_Baugruppe \WObj:=wobjHeizbett;
		ExtruderSpeed 0.000;
		MoveL [[129.375,179.883,0.550],[0.00000000,-0.70419257,0.71000903,-0.00000000],[1,0,-1,1],[9E+09,9E+09,9E+09,9E+09,9E+09,9E+09]],v50,z1,Extruder_Baugruppe \WObj:=wobjHeizbett;
		MoveL [[126.124,180.883,0.550],[0.00000000,-0.70419257,0.71000903,-0.00000000],[1,0,-1,1],[9E+09,9E+09,9E+09,9E+09,9E+09,9E+09]],v1000,z1,Extruder_Baugruppe \WObj:=wobjHeizbett;
		MoveL [[126.124,180.883,0.450],[0.00000000,-0.70419257,0.71000903,0.00000000],[1,0,-1,1],[9E+09,9E+09,9E+09,9E+09,9E+09,9E+09]],v50,z1,Extruder_Baugruppe \WObj:=wobjHeizbett;
		ExtruderSpeed 3.000;
		MoveL [[128.124,180.883,0.450],[0.00000000,-0.70419257,0.71000903,-0.00000000],[1,0,-1,1],[9E+09,9E+09,9E+09,9E+09,9E+09,9E+09]],v30,z1,Extruder_Baugruppe \WObj:=wobjHeizbett;
		ExtruderSpeed 0.000;
		MoveL [[130.125,180.883,0.450],[0.00000000,-0.70419257,0.71000903,-0.00000000],[1,0,-1,1],[9E+09,9E+09,9E+09,9E+09,9E+09,9E+09]],v30,z1,Extruder_Baugruppe \WObj:=wobjHeizbett;
		MoveL [[130.125,182.883,0.450],[0.00000000,-0.70419257,0.71000903,0.00000000],[1,0,-1,1],[9E+09,9E+09,9E+09,9E+09,9E+09,9E+09]],v30,z1,Extruder_Baugruppe \WObj:=wobjHeizbett;
		MoveL [[128.124,182.883,0.450],[0.00000000,-0.70419257,0.71000903,-0.00000000],[1,0,-1,1],[9E+09,9E+09,9E+09,9E+09,9E+09,9E+09]],v30,z1,Extruder_Baugruppe \WObj:=wobjHeizbett;
		MoveL [[126.124,182.883,0.450],[0.00000000,-0.70419257,0.71000903,-0.00000000],[1,0,-1,1],[9E+09,9E+09,9E+09,9E+09,9E+09,9E+09]],v30,z1,Extruder_Baugruppe \WObj:=wobjHeizbett;
		MoveL [[126.124,180.883,0.450],[0.00000000,-0.70419257,0.71000903,0.00000000],[1,0,-1,1],[9E+09,9E+09,9E+09,9E+09,9E+09,9E+09]],v30,z1,Extruder_Baugruppe \WObj:=wobjHeizbett;
		MoveL [[126.124,180.883,0.550],[0.00000000,-0.70419257,0.71000903,-0.00000000],[1,0,-1,1],[9E+09,9E+09,9E+09,9E+09,9E+09,9E+09]],v50,z1,Extruder_Baugruppe \WObj:=wobjHeizbett;
		MoveL [[126.124,183.883,0.550],[0.00000000,-0.70419257,0.71000903,-0.00000000],[1,0,-1,1],[9E+09,9E+09,9E+09,9E+09,9E+09,9E+09]],v1000,z1,Extruder_Baugruppe \WObj:=wobjHeizbett;
		MoveL [[126.125,183.883,0.450],[0.00000000,-0.70419257,0.71000903,0.00000000],[1,0,-1,1],[9E+09,9E+09,9E+09,9E+09,9E+09,9E+09]],v50,z1,Extruder_Baugruppe \WObj:=wobjHeizbett;
		ExtruderSpeed 3.000;
		MoveL [[128.124,183.883,0.450],[0.00000000,-0.70419257,0.71000903,-0.00000000],[1,0,-1,1],[9E+09,9E+09,9E+09,9E+09,9E+09,9E+09]],v30,z1,Extruder_Baugruppe \WObj:=wobjHeizbett;
		ExtruderSpeed 0.000;
		MoveL [[130.125,183.883,0.450],[0.00000000,-0.70419257,0.71000903,-0.00000000],[1,0,-1,1],[9E+09,9E+09,9E+09,9E+09,9E+09,9E+09]],v30,z1,Extruder_Baugruppe \WObj:=wobjHeizbett;
		MoveL [[130.125,183.883,0.550],[0.00000000,-0.70419257,0.71000903,-0.00000000],[1,0,-1,1],[9E+09,9E+09,9E+09,9E+09,9E+09,9E+09]],v50,z1,Extruder_Baugruppe \WObj:=wobjHeizbett;
		MoveL [[133.327,176.883,0.550],[0.00000000,-0.70419257,0.71000903,-0.00000000],[1,0,-1,1],[9E+09,9E+09,9E+09,9E+09,9E+09,9E+09]],v1000,z1,Extruder_Baugruppe \WObj:=wobjHeizbett;
		MoveL [[133.327,176.883,0.450],[0.00000000,-0.70419257,0.71000903,-0.00000000],[1,0,-1,1],[9E+09,9E+09,9E+09,9E+09,9E+09,9E+09]],v50,z1,Extruder_Baugruppe \WObj:=wobjHeizbett;
		ExtruderSpeed 3.000;
